; generated by PrusaSlicer 2.6.0+win64 on 2023-10-20 at 08:06:27 UTC


;
;
; 

; external perimeters extrusion width = 0.45mm
; perimeters extrusion width = 0.45mm
; infill extrusion width = 0.45mm
; solid infill extrusion width = 0.45mm
; top infill extrusion width = 0.40mm
; first layer extrusion width = 0.42mm

M73 P0 R172
M73 Q0 S177
M201 X1000 Y1000 Z200 E5000 ; sets maximum accelerations, mm/sec^2
M203 X200 Y200 Z12 E120 ; sets maximum feedrates, mm / sec
M204 S1250 T1250 ; sets acceleration (S) and retract acceleration (R), mm/sec^2
M205 X8.00 Y8.00 Z0.40 E4.50 ; sets the jerk limits, mm/sec
M205 S0 T0 ; sets the minimum extruding and travel feed rate, mm/sec
;TYPE:Custom
M862.3 P "MK3S" ; printer model check
M862.1 P0.4 ; nozzle diameter check
M115 U3.12.2 ; tell printer latest fw version
G90 ; use absolute coordinates
M83 ; extruder relative mode
M104 S215 ; set extruder temp
M140 S60 ; set bed temp
M190 S60 ; wait for bed temp
M109 S215 ; wait for extruder temp
G28 W ; home all without mesh bed level
G80 ; mesh bed leveling

G1 Z0.2 F720
G1 Y-3 F1000 ; go outside print area
G92 E0
G1 X60 E9 F1000 ; intro line
G1 X100 E12.5 F1000 ; intro line

G92 E0
M221 S95

; Don't change E values below. Excessive value can damage the printer.

M907 E538 ; set extruder motor current
G21 ; set units to millimeters
G90 ; use absolute coordinates
M83 ; use relative distances for extrusion
M900 K0.05 ; Filament gcode LA 1.5
M900 K30 ; Filament gcode LA 1.0
M107
;LAYER_CHANGE
;Z:0.2
;HEIGHT:0.2
;BEFORE_LAYER_CHANGE
G92 E0.0
;0.2


G1 E-.8 F2100
G1 Z.4 F720
;AFTER_LAYER_CHANGE
;0.2
G1 X64.116 Y89.675 F10800
G1 Z.2 F720
M73 Q0 S176
G1 E.8 F2100
M204 S800
;TYPE:Skirt/Brim
;WIDTH:0.42
G1 F1200
G1 X64.975 Y89.072 E.03291
G1 X65.922 Y88.543 E.03401
G1 X67.819 Y87.831 E.06353
G1 X143.514 Y68.72 E2.44784
G1 X145.71 Y68.245 E.07045
G1 X147.967 Y67.899 E.07159
G1 X150.737 Y67.665 E.08716
G1 X152.99 Y67.627 E.07065
G1 X155.802 Y67.769 E.08828
G1 X158.599 Y68.124 E.0884
G1 X161.388 Y68.696 E.08927
G1 X164.096 Y69.468 E.08829
G1 X166.742 Y70.443 E.08842
G1 X169.303 Y71.613 E.08828
G1 X172.218 Y73.248 E.10479
G1 X174.553 Y74.822 E.08829
G1 X176.762 Y76.568 E.08828
G1 X178.833 Y78.475 E.08827
G1 X180.776 Y80.556 E.08927
G1 X182.538 Y82.757 E.0884
G1 X184.127 Y85.081 E.08827
G1 X185.78 Y87.987 E.10482
G1 X186.965 Y90.536 E.08814
G1 X187.957 Y93.176 E.08843
G1 X188.747 Y95.878 E.08827
G1 X189.331 Y98.633 E.0883
G1 X189.706 Y101.423 E.08827
G1 X189.87 Y104.27 E.08941
G1 X189.819 Y107.085 E.08828
G1 X189.556 Y109.888 E.08827
G1 X188.971 Y113.179 E.1048
G1 X188.252 Y115.901 E.08827
G1 X187.33 Y118.562 E.0883
G1 X186.211 Y121.145 E.08826
G1 X184.882 Y123.668 E.08941
G1 X183.385 Y126.052 E.08826
G1 X181.712 Y128.318 E.08832
G1 X179.874 Y130.45 E.08826
G1 X177.491 Y132.794 E.10481
G1 X175.328 Y134.597 E.08829
G1 X173.035 Y136.231 E.08828
G1 X170.595 Y137.705 E.08938
G1 X167.601 Y139.191 E.1048
G1 X164.984 Y140.231 E.0883
G1 X162.262 Y141.08 E.0894
G1 X159.518 Y141.713 E.0883
G1 X156.735 Y142.137 E.08827
G1 X153.927 Y142.35 E.0883
G1 X70.029 Y142.21 E2.63057
G1 X68.956 Y142.105 E.0338
G1 X67.861 Y141.88 E.03505
G1 X66.706 Y141.502 E.0381
G1 X65.725 Y141.057 E.03378
G1 X64.795 Y140.512 E.0338
G1 X63.896 Y139.848 E.03504
G1 X63.101 Y139.12 E.0338
G1 X62.302 Y138.205 E.03809
G1 X61.415 Y136.858 E.05057
G1 X60.797 Y135.521 E.04618
G1 X60.352 Y134.009 E.04942
G1 X60.138 Y132.404 E.05077
G1 X60.13 Y97.473 E1.09524
G1 X60.247 Y96.255 E.03837
G1 X60.47 Y95.193 E.03402
G1 X60.818 Y94.121 E.03534
G1 X61.262 Y93.13 E.03405
G1 X61.805 Y92.192 E.03398
G1 X62.53 Y91.21 E.03827
G1 X63.27 Y90.411 E.03415
G1 X64.07 Y89.714 E.03327
M204 S1000
; printing object 3_diag_connector.stl id:0 copy 0
;WIPE_START
G1 F8640
G1 X64.975 Y89.072 E-.25621
G1 X65.922 Y88.543 E-.25047
G1 X67.111 Y88.097 E-.29332
;WIPE_END
G1 Z.6 F720
G1 X126.127 Y129.936 F10800
G1 Z.2 F720
G1 E.8 F2100
M204 S800
;TYPE:Perimeter
;WIDTH:0.419999
G1 F1200
G1 X125.495 Y129.935 E.01982
G1 X124.879 Y129.979 E.01936
G1 X123.842 Y130.153 E.03297
G1 X118.402 Y131.7 E.17733
G1 X115.947 Y132.356 E.07968
G1 X113.484 Y132.983 E.07969
G1 X111.015 Y133.58 E.07964
G1 X107.304 Y134.418 E.11929
G1 X104.808 Y134.943 E.07997
G1 X102.315 Y135.436 E.07968
G1 X99.816 Y135.899 E.07969
G1 X97.312 Y136.332 E.07968
G1 X94.802 Y136.734 E.0797
G1 X92.289 Y137.107 E.07966
G1 X88.508 Y137.61 E.11959
G1 X85.985 Y137.907 E.07965
G1 X83.458 Y138.173 E.07967
G1 X80.927 Y138.41 E.0797
G1 X78.395 Y138.616 E.07965
G1 X74.59 Y138.868 E.11956
G1 X70.884 Y139.044 E.11633
G1 X70.378 Y139.051 E.01587
G1 X69.666 Y139.008 E.02236
G1 X68.923 Y138.881 E.02363
G1 X68.201 Y138.68 E.0235
G1 X67.503 Y138.404 E.02353
G1 X66.951 Y138.122 E.01944
G1 X66.317 Y137.719 E.02355
G1 X65.731 Y137.254 E.02346
G1 X65.196 Y136.73 E.02348
G1 X64.714 Y136.15 E.02365
G1 X64.321 Y135.555 E.02236
G1 X64.072 Y135.106 E.0161
G1 X63.833 Y134.578 E.01817
G1 X63.607 Y133.944 E.0211
G1 X63.47 Y133.437 E.01647
G1 X63.341 Y132.718 E.0229
G1 X63.292 Y132.091 E.01972
G1 X63.292 Y97.609 E1.08116
G1 X63.358 Y96.855 E.02373
G1 X63.534 Y95.989 E.02771
G1 X63.766 Y95.273 E.0236
G1 X64.073 Y94.584 E.02365
G1 X64.335 Y94.128 E.01649
G1 X64.733 Y93.524 E.02268
G1 X65.306 Y92.853 E.02767
G1 X66.16 Y92.096 E.03578
G1 X66.888 Y91.613 E.02739
G1 X67.464 Y91.325 E.02019
G1 X68.137 Y91.041 E.0229
G1 X68.986 Y90.804 E.02764
G1 X70.132 Y90.652 E.03625
G1 X72.816 Y90.538 E.08423
G1 X76.671 Y90.316 E.12107
G1 X79.239 Y90.13 E.08073
M73 P0 R171
G1 X81.805 Y89.912 E.08074
G1 X84.368 Y89.663 E.08074
G1 X86.928 Y89.384 E.08074
G1 X89.477 Y89.074 E.08051
G1 X92.037 Y88.732 E.08098
G1 X94.585 Y88.36 E.08074
G1 X97.244 Y87.939 E.08441
G1 X100.93 Y87.297 E.11731
G1 X103.463 Y86.817 E.08083
G1 X105.981 Y86.308 E.08055
G1 X108.505 Y85.767 E.08094
G1 X111.016 Y85.196 E.08074
G1 X113.522 Y84.595 E.0808
G1 X117.254 Y83.64 E.12078
G1 X120.978 Y82.614 E.12111
G1 X123.458 Y81.891 E.081
G1 X127.309 Y80.701 E.12638
G1 X127.951 Y80.454 E.02157
G1 X128.445 Y80.213 E.01723
G1 X129.086 Y79.854 E.02304
G1 X129.526 Y79.576 E.01632
G1 X129.987 Y79.23 E.01807
G1 X131.404 Y78.066 E.0575
G1 X132.643 Y77.14 E.0485
G1 X133.922 Y76.271 E.04848
G1 X135.24 Y75.461 E.04851
G1 X136.592 Y74.711 E.04848
G1 X137.977 Y74.023 E.04849
G1 X139.394 Y73.397 E.04857
G1 X140.35 Y73.018 E.03224
G1 X141.318 Y72.667 E.03228
G1 X142.791 Y72.194 E.04851
G1 X143.783 Y71.917 E.03229
G1 X145.29 Y71.556 E.04859
G1 X146.808 Y71.264 E.04847
G1 X148.339 Y71.042 E.04851
G1 X149.878 Y70.888 E.0485
G1 X151.422 Y70.805 E.04848
G1 X152.967 Y70.791 E.04844
G1 X153.997 Y70.82 E.03231
G1 X155.542 Y70.923 E.04855
G1 X157.077 Y71.095 E.04843
G1 X158.099 Y71.249 E.03241
G1 X159.111 Y71.432 E.03225
G1 X160.624 Y71.766 E.04858
G1 X162.116 Y72.167 E.04844
G1 X163.1 Y72.471 E.03229
G1 X164.56 Y72.984 E.04852
G1 X165.519 Y73.361 E.03231
G1 X166.938 Y73.983 E.04858
G1 X168.323 Y74.666 E.04842
G1 X169.229 Y75.157 E.03231
G1 X170.565 Y75.946 E.04865
G1 X171.429 Y76.501 E.0322
G1 X172.701 Y77.388 E.04862
G1 X173.52 Y78.006 E.03217
G1 X174.72 Y78.985 E.04856
G1 X175.875 Y80.018 E.04859
G1 X176.614 Y80.73 E.03218
G1 X177.686 Y81.845 E.0485
G1 X178.373 Y82.614 E.03233
G1 X179.359 Y83.808 E.04855
G1 X180.288 Y85.042 E.04843
G1 X180.877 Y85.888 E.03232
G1 X181.714 Y87.194 E.04864
G1 X182.235 Y88.078 E.03217
G1 X182.972 Y89.444 E.04867
G1 X183.425 Y90.365 E.03218
G1 X184.056 Y91.781 E.04861
G1 X184.439 Y92.734 E.0322
G1 X184.961 Y94.192 E.04856
G1 X185.417 Y95.672 E.04856
G1 X185.682 Y96.664 E.03219
G1 X186.025 Y98.174 E.04855
G1 X186.299 Y99.695 E.04846
G1 X186.444 Y100.715 E.0323
G1 X186.603 Y102.258 E.04864
G1 X186.67 Y103.283 E.03221
G1 X186.709 Y104.718 E.04501
G1 X186.702 Y105.86 E.03581
G1 X186.628 Y107.407 E.04856
G1 X186.484 Y108.949 E.04856
G1 X186.351 Y109.967 E.03219
G1 X186.091 Y111.496 E.04863
G1 X185.876 Y112.524 E.03293
G1 X185.507 Y114.004 E.04782
G1 X185.067 Y115.484 E.04841
G1 X184.736 Y116.461 E.03234
G1 X184.185 Y117.908 E.04855
G1 X183.568 Y119.329 E.04857
G1 X183.123 Y120.256 E.03224
G1 X182.651 Y121.17 E.03225
G1 X181.888 Y122.518 E.04857
G1 X181.065 Y123.83 E.04856
G1 X180.486 Y124.681 E.03227
G1 X179.882 Y125.513 E.03224
G1 X178.925 Y126.731 E.04857
G1 X177.916 Y127.903 E.04849
G1 X176.853 Y129.03 E.04857
G1 X176.121 Y129.75 E.03219
G1 X174.975 Y130.795 E.04863
G1 X174.191 Y131.458 E.03219
G1 X172.97 Y132.414 E.04862
G1 X172.138 Y133.016 E.0322
G1 X170.848 Y133.877 E.04863
G1 X169.974 Y134.415 E.03218
G1 X168.623 Y135.176 E.04862
G1 X167.71 Y135.646 E.0322
G1 X166.307 Y136.303 E.04857
G1 X164.88 Y136.895 E.04844
G1 X163.914 Y137.253 E.0323
G1 X162.444 Y137.736 E.04851
G1 X161.453 Y138.021 E.03233
G1 X159.948 Y138.393 E.04861
G1 X158.943 Y138.601 E.03218
G1 X157.413 Y138.859 E.04865
G1 X156.395 Y138.991 E.03219
G1 X154.854 Y139.132 E.04852
G1 X153.825 Y139.188 E.03231
G1 X152.277 Y139.212 E.04854
G1 X150.731 Y139.167 E.04849
G1 X149.188 Y139.052 E.04851
G1 X147.653 Y138.868 E.04847
G1 X146.127 Y138.614 E.0485
G1 X144.615 Y138.292 E.04847
G1 X143.118 Y137.902 E.0485
G1 X141.641 Y137.444 E.04849
G1 X140.186 Y136.92 E.04849
G1 X138.756 Y136.331 E.04849
G1 X137.354 Y135.678 E.04849
G1 X135.981 Y134.961 E.04857
G1 X135.09 Y134.452 E.03217
G1 X133.774 Y133.634 E.04858
G1 X132.499 Y132.758 E.0485
G1 X130.764 Y131.457 E.06799
G1 X130.249 Y131.132 E.01909
G1 X129.583 Y130.78 E.02362
G1 X129.054 Y130.559 E.01798
G1 X128.338 Y130.311 E.02376
G1 X127.574 Y130.118 E.02471
G1 X126.787 Y129.991 E.025
G1 X126.187 Y129.941 E.01888
M204 S1000
G1 X126.011 Y130.311 F10800
M204 S800
;TYPE:External perimeter
G1 F1200
G1 X125.52 Y130.311 E.01539
G1 X124.94 Y130.351 E.01823
G1 X123.945 Y130.516 E.03162
G1 X118.502 Y132.063 E.17742
G1 X116.043 Y132.721 E.07981
G1 X113.575 Y133.349 E.07985
G1 X111.101 Y133.947 E.0798
G1 X107.384 Y134.787 E.11948
G1 X104.884 Y135.312 E.0801
G1 X102.386 Y135.806 E.07984
G1 X99.883 Y136.27 E.07982
G1 X97.374 Y136.704 E.07984
G1 X94.86 Y137.107 E.07983
G1 X92.342 Y137.48 E.07981
G1 X88.555 Y137.984 E.11979
G1 X86.027 Y138.281 E.07981
G1 X83.495 Y138.549 E.07983
G1 X80.96 Y138.785 E.07983
G1 X78.423 Y138.992 E.07981
G1 X74.612 Y139.244 E.11975
G1 X70.667 Y139.432 E.12383
G1 X70.14 Y139.425 E.01653
G1 X69.618 Y139.382 E.01642
G1 X68.84 Y139.25 E.02474
G1 X68.081 Y139.038 E.02471
G1 X67.347 Y138.748 E.02475
G1 X66.764 Y138.45 E.02053
G1 X66.098 Y138.027 E.02474
G1 X65.481 Y137.537 E.0247
G1 X64.918 Y136.986 E.0247
G1 X64.414 Y136.378 E.02476
G1 X64.115 Y135.948 E.01642
G1 X63.847 Y135.496 E.01648
G1 X63.611 Y135.028 E.01643
G1 X63.361 Y134.419 E.02064
G1 X63.165 Y133.792 E.0206
G1 X63.048 Y133.28 E.01647
G1 X62.966 Y132.762 E.01644
G1 X62.915 Y132.106 E.02063
G1 X62.915 Y97.592 E1.08216
G1 X62.984 Y96.8 E.02493
G1 X63.169 Y95.893 E.02902
G1 X63.414 Y95.138 E.02489
G1 X63.736 Y94.412 E.0249
G1 X64.134 Y93.723 E.02495
G1 X64.435 Y93.293 E.01646
G1 X65.036 Y92.588 E.02905
G1 X65.929 Y91.797 E.0374
G1 X66.699 Y91.286 E.02898
G1 X67.53 Y90.871 E.02912
G1 X68.018 Y90.683 E.0164
G1 X68.911 Y90.434 E.02907
G1 X70.099 Y90.276 E.03758
G1 X72.792 Y90.161 E.08451
G1 X76.641 Y89.94 E.12088
G1 X79.205 Y89.754 E.0806
G1 X81.766 Y89.537 E.08059
G1 X84.325 Y89.289 E.08061
G1 X86.88 Y89.01 E.08059
G1 X89.432 Y88.7 E.0806
G1 X91.98 Y88.36 E.0806
G1 X94.523 Y87.988 E.08058
G1 X97.176 Y87.568 E.08422
G1 X100.86 Y86.926 E.11725
G1 X103.387 Y86.448 E.08064
G1 X105.906 Y85.939 E.08058
G1 X108.419 Y85.4 E.08059
G1 X110.926 Y84.83 E.08061
G1 X113.426 Y84.23 E.08061
G1 X117.161 Y83.274 E.12088
G1 X120.878 Y82.251 E.12088
G1 X123.346 Y81.531 E.08061
G1 X127.212 Y80.334 E.12689
G1 X127.9 Y80.061 E.02321
G1 X128.588 Y79.721 E.02406
G1 X129.3 Y79.274 E.02636
G1 X129.748 Y78.939 E.01754
G1 X131.172 Y77.769 E.05779
G1 X132.424 Y76.833 E.04901
G1 X133.718 Y75.954 E.04905
G1 X135.049 Y75.135 E.049
G1 X136.417 Y74.377 E.04904
G1 X137.817 Y73.681 E.04902
G1 X139.248 Y73.05 E.04904
G1 X140.216 Y72.665 E.03266
G1 X141.196 Y72.31 E.03268
G1 X142.682 Y71.833 E.04893
G1 X143.689 Y71.552 E.03278
G1 X145.21 Y71.187 E.04904
G1 X146.746 Y70.892 E.04904
G1 X148.293 Y70.667 E.04902
G1 X149.849 Y70.512 E.04903
G1 X151.41 Y70.428 E.04901
G1 X152.97 Y70.414 E.04891
G1 X154.015 Y70.444 E.03278
G1 X155.576 Y70.547 E.04905
G1 X157.127 Y70.721 E.04894
G1 X158.161 Y70.877 E.03279
G1 X159.186 Y71.063 E.03266
G1 X160.713 Y71.4 E.04903
G1 X162.22 Y71.804 E.04892
G1 X163.219 Y72.113 E.03279
G1 X164.691 Y72.63 E.04892
G1 X165.664 Y73.013 E.03279
G1 X167.097 Y73.641 E.04906
G1 X168.496 Y74.331 E.04891
G1 X169.415 Y74.828 E.03276
G1 X170.763 Y75.624 E.04908
G1 X171.638 Y76.187 E.03262
G1 X172.922 Y77.082 E.04907
G1 X173.753 Y77.71 E.03266
G1 X174.965 Y78.699 E.04905
G1 X176.131 Y79.741 E.04903
G1 X176.881 Y80.464 E.03266
G1 X177.963 Y81.589 E.04894
G1 X178.659 Y82.368 E.03275
G1 X179.655 Y83.574 E.04904
G1 X180.594 Y84.821 E.04894
G1 X181.191 Y85.679 E.03277
G1 X182.035 Y86.996 E.04905
G1 X182.564 Y87.893 E.03265
G1 X183.307 Y89.271 E.04909
G1 X183.766 Y90.205 E.03263
G1 X184.403 Y91.634 E.04906
G1 X184.791 Y92.6 E.03264
G1 X185.319 Y94.073 E.04906
G1 X185.779 Y95.568 E.04904
G1 X186.048 Y96.574 E.03265
G1 X186.395 Y98.099 E.04904
G1 X186.671 Y99.635 E.04893
G1 X186.818 Y100.67 E.03278
G1 X186.979 Y102.226 E.04905
G1 X187.047 Y103.265 E.03265
G1 X187.086 Y104.708 E.04526
G1 X187.079 Y105.87 E.03643
G1 X187.004 Y107.433 E.04906
G1 X186.859 Y108.991 E.04906
G1 X186.724 Y110.023 E.03263
G1 X186.461 Y111.566 E.04908
G1 X186.243 Y112.608 E.03338
G1 X185.871 Y114.103 E.0483
G1 X185.427 Y115.599 E.04893
G1 X185.091 Y116.588 E.03275
G1 X184.534 Y118.05 E.04905
G1 X183.911 Y119.485 E.04905
G1 X183.461 Y120.424 E.03265
G1 X182.982 Y121.35 E.03269
G1 X182.212 Y122.711 E.04903
G1 X181.381 Y124.037 E.04907
G1 X180.795 Y124.898 E.03266
G1 X180.182 Y125.741 E.03268
G1 X179.216 Y126.971 E.04904
G1 X178.196 Y128.156 E.04902
G1 X177.123 Y129.294 E.04904
G1 X176.381 Y130.024 E.03264
G1 X175.224 Y131.079 E.04909
G1 X174.429 Y131.751 E.03264
G1 X173.197 Y132.715 E.04905
G1 X172.354 Y133.325 E.03263
G1 X171.052 Y134.195 E.0491
G1 X170.165 Y134.74 E.03264
G1 X168.802 Y135.508 E.04905
G1 X167.876 Y135.985 E.03266
G1 X166.46 Y136.648 E.04902
G1 X165.018 Y137.246 E.04895
G1 X164.038 Y137.609 E.03277
G1 X162.555 Y138.097 E.04895
G1 X161.551 Y138.385 E.03275
G1 X160.031 Y138.76 E.04909
G1 X159.012 Y138.972 E.03263
G1 X157.469 Y139.232 E.04906
G1 X156.436 Y139.366 E.03266
G1 X154.882 Y139.508 E.04893
G1 X153.838 Y139.564 E.03278
G1 X152.274 Y139.59 E.04904
G1 X150.711 Y139.544 E.04903
G1 X149.152 Y139.428 E.04902
G1 X147.599 Y139.241 E.04904
G1 X146.057 Y138.985 E.04901
G1 X144.528 Y138.659 E.04902
G1 X143.015 Y138.264 E.04903
G1 X141.521 Y137.802 E.04903
G1 X140.05 Y137.272 E.04902
G1 X138.604 Y136.676 E.04904
G1 X137.187 Y136.016 E.04901
G1 X135.8 Y135.292 E.04906
G1 X134.896 Y134.776 E.03264
G1 X133.568 Y133.949 E.04905
G1 X132.279 Y133.064 E.04902
G1 X130.562 Y131.776 E.0673
G1 X130.072 Y131.465 E.0182
G1 X129.436 Y131.127 E.02258
G1 X128.909 Y130.907 E.01791
G1 X128.229 Y130.672 E.02256
G1 X127.503 Y130.488 E.02348
G1 X126.755 Y130.367 E.02376
G1 X126.071 Y130.311 E.02152
M204 S1000
G1 X125.824 Y129.957 F10800
;WIPE_START
G1 F8640
G1 X125.52 Y130.311 E-.12723
G1 X124.94 Y130.351 E-.13424
G1 X123.945 Y130.516 E-.23289
G1 X122.672 Y130.878 E-.30564
;WIPE_END
G1 Z.6 F720
G1 X172.235 Y126.986 F10800
G1 Z.2 F720
G1 E.8 F2100
M204 S800
;TYPE:Perimeter
G1 F1200
G1 X171.789 Y127.037 E.01408
G1 X133.248 Y127.037 E1.20842
G1 X132.735 Y126.987 E.01616
G1 X132.183 Y126.823 E.01806
G1 X131.677 Y126.548 E.01806
G1 X131.268 Y126.207 E.0167
G1 X130.934 Y125.797 E.01658
G1 X130.684 Y125.332 E.01655
G1 X130.526 Y124.84 E.0162
G1 X130.465 Y124.336 E.01592
G1 X130.464 Y85.673 E1.21225
G1 X130.526 Y85.166 E.01602
G1 X130.68 Y84.679 E.01601
G1 X130.98 Y84.136 E.01945
G1 X131.304 Y83.755 E.01568
G1 X131.72 Y83.421 E.01673
G1 X132.18 Y83.177 E.01633
G1 X132.735 Y83.014 E.01814
G1 X133.248 Y82.963 E.01616
G1 X171.792 Y82.964 E1.20852
G1 X172.313 Y83.023 E.01644
M73 Q0 S175
G1 X172.822 Y83.18 E.0167
G1 X173.323 Y83.453 E.01789
