;FLAVOR:Marlin
;TIME:8624
;Filament used: 7.14576m
;Layer height: 0.2
;MINX:146.835
;MINY:137.7
;MINZ:0.2
;MAXX:202.3
;MAXY:212.3
;MAXZ:38
;Generated with Cura_SteamEngine 4.7.1
M140 S60
M105
M190 S60
M104 S200
M105
M109 S200
M82 ;absolute extrusion mode
M201 X500.00 Y500.00 Z100.00 E5000.00 ;Setup machine max acceleration
M203 X500.00 Y500.00 Z10.00 E50.00 ;Setup machine max feedrate
M204 P500.00 R1000.00 T500.00 ;Setup Print/Retract/Travel acceleration
M205 X8.00 Y8.00 Z0.40 E5.00 ;Setup Jerk
M220 S100 ;Reset Feedrate
M221 S100 ;Reset Flowrate

G28 ;Home

G92 E0 ;Reset Extruder
G1 Z2.0 F3000 ;Move Z Axis up
G1 X10.1 Y20 Z0.28 F5000.0 ;Move to start position
G1 X10.1 Y200.0 Z0.28 F1500.0 E15 ;Draw the first line
G1 X10.4 Y200.0 Z0.28 F5000.0 ;Move to side a little
G1 X10.4 Y20 Z0.28 F1500.0 E30 ;Draw the second line
G92 E0 ;Reset Extruder
G1 Z2.0 F3000 ;Move Z Axis up

G92 E0
G92 E0
G1 F2700 E-5
;LAYER_COUNT:190
;LAYER:0
M107
;MESH:Base.stl
G0 F6000 X155.328 Y147.983 Z0.2
;TYPE:WALL-INNER
G1 F2700 E0
G1 F1200 X155.482 Y147.961 E0.00517
G1 X155.631 Y147.934 E0.01021
G1 X155.741 Y147.908 E0.01397
G1 X155.886 Y147.867 E0.01898
G1 X155.993 Y147.832 E0.02273
G1 X156.181 Y147.758 E0.02945
G1 X156.325 Y147.692 E0.03471
G1 X156.463 Y147.619 E0.03991
G1 X156.6 Y147.538 E0.0452
G1 X156.771 Y147.422 E0.05207
G1 X156.891 Y147.328 E0.05714
G1 X156.976 Y147.259 E0.06078
G1 X157.091 Y147.151 E0.06603
G1 X157.201 Y147.038 E0.07128
G1 X157.335 Y146.884 E0.07807
G1 X157.429 Y146.76 E0.08324
G1 X157.491 Y146.672 E0.08682
G1 X157.573 Y146.544 E0.09188
G1 X157.627 Y146.451 E0.09545
G1 X157.677 Y146.356 E0.09903
G1 X157.746 Y146.213 E0.10431
G1 X157.82 Y146.023 E0.11109
G1 X157.87 Y145.873 E0.11635
G1 X157.911 Y145.723 E0.12152
G1 X157.945 Y145.571 E0.1267
G1 X157.971 Y145.417 E0.13189
G1 X157.989 Y145.261 E0.13712
G1 X157.999 Y145.105 E0.14232
G1 X158 Y144.949 E0.14751
G1 X157.996 Y144.839 E0.15117
G1 X157.984 Y144.686 E0.15627
G1 X157.964 Y144.532 E0.16144
G1 X157.935 Y144.376 E0.16671
G1 X157.9 Y144.226 E0.17184
G1 X157.869 Y144.121 E0.17548
G1 X157.82 Y143.972 E0.18069
G1 X157.741 Y143.779 E0.18763
G1 X157.651 Y143.596 E0.19441
G1 X157.573 Y143.458 E0.19969
G1 X157.488 Y143.323 E0.20499
G1 X157.368 Y143.159 E0.21175
G1 X157.267 Y143.036 E0.21704
G1 X157.163 Y142.92 E0.22223
G1 X157.052 Y142.811 E0.2274
G1 X156.971 Y142.738 E0.23103
G1 X156.853 Y142.64 E0.23613
G1 X156.765 Y142.574 E0.23979
G1 X156.599 Y142.46 E0.24649
G1 X156.461 Y142.379 E0.25181
G1 X156.322 Y142.306 E0.25703
G1 X156.18 Y142.241 E0.26222
G1 X156.077 Y142.2 E0.26591
G1 X155.89 Y142.134 E0.27251
G1 X155.732 Y142.091 E0.27795
G1 X155.534 Y142.047 E0.2847
G1 X155.326 Y142.017 E0.29169
G1 X155.12 Y142.002 E0.29856
G1 X154.962 Y142 E0.30381
G1 X154.805 Y142.006 E0.30904
G1 X154.693 Y142.015 E0.31278
G1 X154.493 Y142.042 E0.31949
G1 X154.29 Y142.084 E0.32638
G1 X154.137 Y142.126 E0.33166
G1 X153.983 Y142.176 E0.33705
G1 X153.795 Y142.253 E0.3438
G1 X153.652 Y142.319 E0.34904
G1 X153.513 Y142.395 E0.35431
G1 X153.38 Y142.475 E0.35947
G1 X153.214 Y142.588 E0.36615
G1 X153.119 Y142.662 E0.37016
G1 X152.971 Y142.791 E0.37669
G1 X152.891 Y142.866 E0.38033
G1 X152.783 Y142.978 E0.38551
G1 X152.683 Y143.094 E0.3906
G1 X152.613 Y143.181 E0.39432
G1 X152.523 Y143.307 E0.39947
G1 X152.442 Y143.432 E0.40442
G1 X152.384 Y143.529 E0.40818
G1 X152.313 Y143.665 E0.41328
G1 X152.265 Y143.766 E0.417
G1 X152.19 Y143.951 E0.42364
G1 X152.137 Y144.101 E0.42893
G1 X152.094 Y144.254 E0.43422
G1 X152.06 Y144.404 E0.43933
G1 X152.032 Y144.558 E0.44454
G1 X152.014 Y144.714 E0.44976
G1 X152.002 Y144.87 E0.45497
G1 X152 Y145.027 E0.46019
G1 X152.005 Y145.183 E0.46538
G1 X152.018 Y145.338 E0.47055
G1 X152.033 Y145.448 E0.47425
G1 X152.06 Y145.598 E0.47932
G1 X152.094 Y145.748 E0.48443
G1 X152.137 Y145.901 E0.48972
G1 X152.19 Y146.054 E0.4951
G1 X152.27 Y146.244 E0.50196
G1 X152.36 Y146.425 E0.50868
G1 X152.441 Y146.566 E0.51409
G1 X152.552 Y146.735 E0.52082
G1 X152.648 Y146.863 E0.52614
G1 X152.752 Y146.987 E0.53152
G1 X152.892 Y147.135 E0.5383
G1 X153.008 Y147.243 E0.54357
G1 X153.123 Y147.341 E0.54859
G1 X153.212 Y147.41 E0.55234
G1 X153.337 Y147.497 E0.5574
G1 X153.428 Y147.556 E0.56101
G1 X153.559 Y147.632 E0.56605
G1 X153.653 Y147.682 E0.56959
G1 X153.753 Y147.73 E0.57328
G1 X153.893 Y147.788 E0.57832
G1 X153.991 Y147.825 E0.5818
G1 X154.138 Y147.874 E0.58696
G1 X154.292 Y147.916 E0.59227
G1 X154.495 Y147.958 E0.59916
G1 X154.7 Y147.985 E0.60604
G1 X154.857 Y147.997 E0.61128
G1 X155.013 Y148 E0.61647
G1 X155.17 Y147.996 E0.62169
G1 X155.328 Y147.983 E0.62696
G0 F6000 X155.284 Y147.585
;TYPE:WALL-OUTER
G1 F1200 X155.418 Y147.566 E0.63146
G1 X155.55 Y147.542 E0.63593
G1 X155.64 Y147.521 E0.639
G1 X155.769 Y147.484 E0.64346
G1 X155.858 Y147.455 E0.64658
G1 X156.024 Y147.39 E0.65251
G1 X156.148 Y147.333 E0.65704
G1 X156.268 Y147.27 E0.66155
G1 X156.386 Y147.2 E0.66612
G1 X156.535 Y147.099 E0.6721
G1 X156.641 Y147.016 E0.67658
G1 X156.712 Y146.958 E0.67963
G1 X156.811 Y146.865 E0.68415
G1 X156.907 Y146.767 E0.68871
G1 X157.024 Y146.632 E0.69465
G1 X157.106 Y146.524 E0.69916
G1 X157.159 Y146.449 E0.70222
G1 X157.231 Y146.336 E0.70667
G1 X157.277 Y146.257 E0.70971
G1 X157.32 Y146.176 E0.71276
G1 X157.379 Y146.053 E0.7173
G1 X157.444 Y145.887 E0.72323
G1 X157.487 Y145.757 E0.72778
G1 X157.523 Y145.627 E0.73227
G1 X157.552 Y145.494 E0.7368
G1 X157.575 Y145.361 E0.74129
G1 X157.59 Y145.226 E0.74581
G1 X157.599 Y145.09 E0.75034
G1 X157.6 Y144.954 E0.75486
G1 X157.597 Y144.862 E0.75792
G1 X157.586 Y144.728 E0.7624
G1 X157.569 Y144.594 E0.76689
G1 X157.544 Y144.459 E0.77145
G1 X157.513 Y144.329 E0.7759
G1 X157.487 Y144.24 E0.77898
G1 X157.444 Y144.11 E0.78354
G1 X157.376 Y143.943 E0.78954
G1 X157.297 Y143.782 E0.7955
G1 X157.23 Y143.663 E0.80004
G1 X157.157 Y143.548 E0.80457
G1 X157.052 Y143.404 E0.8105
G1 X156.964 Y143.297 E0.81511
G1 X156.874 Y143.197 E0.81958
G1 X156.777 Y143.102 E0.8241
G1 X156.709 Y143.04 E0.82716
G1 X156.605 Y142.954 E0.83165
G1 X156.532 Y142.899 E0.83469
G1 X156.384 Y142.798 E0.84065
G1 X156.266 Y142.728 E0.84521
G1 X156.146 Y142.665 E0.84972
G1 X156.023 Y142.609 E0.85421
G1 X155.937 Y142.575 E0.85729
G1 X155.77 Y142.516 E0.86318
G1 X155.636 Y142.479 E0.8678
G1 X155.462 Y142.441 E0.87373
G1 X155.283 Y142.415 E0.87974
G1 X155.103 Y142.402 E0.88575
G1 X154.966 Y142.4 E0.8903
G1 X154.83 Y142.405 E0.89483
G1 X154.737 Y142.413 E0.89793
G1 X154.56 Y142.437 E0.90387
G1 X154.383 Y142.473 E0.90988
G1 X154.252 Y142.509 E0.9144
G1 X154.121 Y142.552 E0.91899
G1 X153.955 Y142.62 E0.92495
G1 X153.832 Y142.677 E0.92946
G1 X153.712 Y142.742 E0.934
G1 X153.596 Y142.812 E0.93851
G1 X153.449 Y142.912 E0.94442
G1 X153.373 Y142.971 E0.94762
G1 X153.24 Y143.087 E0.95349
G1 X153.172 Y143.151 E0.9566
G1 X153.078 Y143.248 E0.96109
G1 X152.99 Y143.35 E0.96557
G1 X152.932 Y143.422 E0.96864
G1 X152.854 Y143.532 E0.97313
G1 X152.781 Y143.644 E0.97758
G1 X152.733 Y143.724 E0.98068
G1 X152.671 Y143.843 E0.98514
G1 X152.631 Y143.927 E0.98824
G1 X152.564 Y144.092 E0.99416
G1 X152.519 Y144.221 E0.9987
G1 X152.482 Y144.353 E1.00326
G1 X152.452 Y144.484 E1.00773
G1 X152.428 Y144.617 E1.01223
G1 X152.412 Y144.752 E1.01675
G1 X152.402 Y144.888 E1.02129
G1 X152.4 Y145.024 E1.02581
G1 X152.404 Y145.159 E1.0303
G1 X152.416 Y145.294 E1.03481
G1 X152.428 Y145.386 E1.0379
G1 X152.452 Y145.518 E1.04236
G1 X152.482 Y145.649 E1.04683
G1 X152.519 Y145.781 E1.05139
G1 X152.564 Y145.911 E1.05596
G1 X152.634 Y146.077 E1.06195
G1 X152.713 Y146.236 E1.06786
G1 X152.782 Y146.356 E1.07246
G1 X152.88 Y146.505 E1.0784
G1 X152.962 Y146.615 E1.08296
G1 X153.051 Y146.721 E1.08756
G1 X153.174 Y146.851 E1.09351
G1 X153.274 Y146.944 E1.09806
G1 X153.376 Y147.031 E1.10252
G1 X153.449 Y147.088 E1.1056
G1 X153.56 Y147.165 E1.11009
G1 X153.637 Y147.215 E1.11314
G1 X153.753 Y147.282 E1.1176
G1 X153.834 Y147.325 E1.12065
G1 X153.917 Y147.365 E1.12371
G1 X154.04 Y147.416 E1.12814
G1 X154.125 Y147.448 E1.13116
G1 X154.254 Y147.491 E1.13569
G1 X154.385 Y147.527 E1.1402
G1 X154.562 Y147.563 E1.14621
G1 X154.741 Y147.587 E1.15222
G1 X154.876 Y147.597 E1.15672
G1 X155.012 Y147.6 E1.16125
G1 X155.148 Y147.596 E1.16577
G1 X155.284 Y147.585 E1.17031
G0 F6000 X155.332 Y148.022
G1 F2700 E-3.82969
G0 F6000 X156.256 Y147.933
G0 X155.769 Y146.556
G0 X193.265 Y175.007
G0 X191.814 Y175.194
G0 X192.873 Y176.88
G0 X193.39 Y177.317
G0 X194.495 Y177.958
;TYPE:WALL-INNER
G1 F2700 E1.17031
G1 F1200 X194.7 Y177.985 E1.17719
G1 X194.857 Y177.997 E1.18242
G1 X195.013 Y178 E1.18761
G1 X195.17 Y177.996 E1.19284
G1 X195.328 Y177.983 E1.19811
G1 X195.482 Y177.961 E1.20328
G1 X195.631 Y177.934 E1.20832
G1 X195.741 Y177.908 E1.21208
G1 X195.886 Y177.867 E1.21709
G1 X195.993 Y177.832 E1.22083
G1 X196.181 Y177.758 E1.22755
G1 X196.325 Y177.692 E1.23282
G1 X196.463 Y177.619 E1.23802
G1 X196.6 Y177.538 E1.24331
G1 X196.771 Y177.422 E1.25018
G1 X196.891 Y177.328 E1.25525
G1 X196.976 Y177.259 E1.25889
G1 X197.091 Y177.151 E1.26414
G1 X197.201 Y177.038 E1.26939
G1 X197.335 Y176.884 E1.27618
G1 X197.429 Y176.76 E1.28135
G1 X197.491 Y176.672 E1.28493
G1 X197.573 Y176.544 E1.28999
G1 X197.627 Y176.451 E1.29356
G1 X197.677 Y176.356 E1.29713
G1 X197.746 Y176.213 E1.30242
G1 X197.82 Y176.023 E1.3092
G1 X197.87 Y175.873 E1.31446
G1 X197.911 Y175.723 E1.31963
G1 X197.945 Y175.571 E1.32481
G1 X197.971 Y175.417 E1.33
G1 X197.989 Y175.261 E1.33523
G1 X197.999 Y175.105 E1.34043
G1 X198 Y174.949 E1.34561
G1 X197.996 Y174.839 E1.34927
G1 X197.984 Y174.686 E1.35438
G1 X197.964 Y174.532 E1.35954
G1 X197.935 Y174.376 E1.36482
G1 X197.9 Y174.226 E1.36994
G1 X197.869 Y174.121 E1.37359
G1 X197.82 Y173.972 E1.3788
G1 X197.741 Y173.779 E1.38574
G1 X197.651 Y173.596 E1.39252
G1 X197.573 Y173.458 E1.39779
G1 X197.488 Y173.323 E1.4031
G1 X197.368 Y173.159 E1.40986
G1 X197.267 Y173.036 E1.41515
G1 X197.163 Y172.92 E1.42033
G1 X197.052 Y172.811 E1.42551
G1 X196.971 Y172.738 E1.42914
G1 X196.853 Y172.64 E1.43424
G1 X196.765 Y172.574 E1.4379
G1 X196.599 Y172.46 E1.44459
G1 X196.461 Y172.379 E1.44992
G1 X196.322 Y172.306 E1.45514
G1 X196.18 Y172.241 E1.46033
G1 X196.077 Y172.2 E1.46402
G1 X195.89 Y172.134 E1.47061
G1 X195.732 Y172.091 E1.47606
G1 X195.534 Y172.047 E1.48281
G1 X195.326 Y172.017 E1.4898
G1 X195.12 Y172.002 E1.49667
G1 X194.962 Y172 E1.50192
G1 X194.805 Y172.006 E1.50715
G1 X194.693 Y172.015 E1.51089
G1 X194.493 Y172.042 E1.5176
G1 X194.29 Y172.084 E1.52449
G1 X194.137 Y172.126 E1.52977
G1 X193.983 Y172.176 E1.53515
G1 X193.795 Y172.253 E1.54191
G1 X193.652 Y172.319 E1.54715
G1 X193.513 Y172.395 E1.55242
G1 X193.38 Y172.475 E1.55758
G1 X193.214 Y172.588 E1.56426
G1 X193.119 Y172.662 E1.56827
G1 X192.971 Y172.791 E1.5748
G1 X192.891 Y172.866 E1.57844
G1 X192.783 Y172.978 E1.58362
G1 X192.683 Y173.094 E1.58871
G1 X192.613 Y173.181 E1.59243
G1 X192.523 Y173.307 E1.59758
G1 X192.442 Y173.432 E1.60253
G1 X192.384 Y173.529 E1.60629
G1 X192.313 Y173.665 E1.61139
G1 X192.265 Y173.766 E1.61511
G1 X192.19 Y173.951 E1.62175
G1 X192.137 Y174.101 E1.62704
G1 X192.094 Y174.254 E1.63233
G1 X192.06 Y174.404 E1.63744
G1 X192.032 Y174.558 E1.64265
G1 X192.014 Y174.714 E1.64787
G1 X192.002 Y174.87 E1.65308
G1 X192 Y175.027 E1.6583
G1 X192.005 Y175.183 E1.66349
G1 X192.018 Y175.338 E1.66866
G1 X192.033 Y175.448 E1.67236
G1 X192.06 Y175.598 E1.67742
G1 X192.094 Y175.748 E1.68254
G1 X192.137 Y175.901 E1.68783
G1 X192.19 Y176.054 E1.69321
G1 X192.27 Y176.244 E1.70007
G1 X192.36 Y176.425 E1.70679
G1 X192.441 Y176.566 E1.7122
G1 X192.552 Y176.735 E1.71892
G1 X192.648 Y176.863 E1.72425
G1 X192.752 Y176.987 E1.72963
G1 X192.892 Y177.135 E1.73641
G1 X193.008 Y177.243 E1.74168
G1 X193.123 Y177.341 E1.7467
G1 X193.212 Y177.41 E1.75045
G1 X193.337 Y177.497 E1.75551
G1 X193.428 Y177.556 E1.75912
G1 X193.559 Y177.632 E1.76416
G1 X193.653 Y177.682 E1.7677
G1 X193.753 Y177.73 E1.77139
G1 X193.893 Y177.788 E1.77643
G1 X193.991 Y177.825 E1.77991
G1 X194.138 Y177.874 E1.78507
G1 X194.292 Y177.916 E1.79038
G1 X194.495 Y177.958 E1.79727
G0 F6000 X194.562 Y177.563
;TYPE:WALL-OUTER
G1 F1200 X194.741 Y177.587 E1.80328
G1 X194.876 Y177.597 E1.80778
G1 X195.012 Y177.6 E1.8123
G1 X195.148 Y177.596 E1.81683
G1 X195.284 Y177.585 E1.82137
G1 X195.418 Y177.566 E1.82587
G1 X195.55 Y177.542 E1.83033
G1 X195.64 Y177.521 E1.8334
G1 X195.769 Y177.484 E1.83787
G1 X195.858 Y177.455 E1.84098
G1 X196.024 Y177.39 E1.84691
G1 X196.148 Y177.333 E1.85145
G1 X196.268 Y177.27 E1.85596
G1 X196.386 Y177.2 E1.86052
G1 X196.535 Y177.099 E1.86651
G1 X196.641 Y177.016 E1.87099
G1 X196.712 Y176.958 E1.87404
G1 X196.811 Y176.865 E1.87855
G1 X196.907 Y176.767 E1.88312
G1 X197.024 Y176.632 E1.88906
G1 X197.106 Y176.524 E1.89357
G1 X197.159 Y176.449 E1.89662
G1 X197.231 Y176.336 E1.90108
G1 X197.277 Y176.257 E1.90412
G1 X197.32 Y176.176 E1.90717
G1 X197.379 Y176.053 E1.91171
G1 X197.444 Y175.887 E1.91764
G1 X197.487 Y175.757 E1.92219
G1 X197.523 Y175.627 E1.92668
G1 X197.552 Y175.494 E1.9312
G1 X197.575 Y175.361 E1.93569
G1 X197.59 Y175.226 E1.94021
G1 X197.599 Y175.09 E1.94474
G1 X197.6 Y174.954 E1.94927
G1 X197.597 Y174.862 E1.95233
G1 X197.586 Y174.728 E1.9568
G1 X197.569 Y174.594 E1.96129
G1 X197.544 Y174.459 E1.96586
G1 X197.513 Y174.329 E1.97031
G1 X197.487 Y174.24 E1.97339
G1 X197.444 Y174.11 E1.97794
G1 X197.376 Y173.943 E1.98394
G1 X197.297 Y173.782 E1.98991
G1 X197.23 Y173.663 E1.99445
G1 X197.157 Y173.548 E1.99898
G1 X197.052 Y173.404 E2.00491
G1 X196.964 Y173.297 E2.00951
G1 X196.874 Y173.197 E2.01399
G1 X196.777 Y173.102 E2.0185
G1 X196.709 Y173.04 E2.02156
G1 X196.605 Y172.954 E2.02605
G1 X196.532 Y172.899 E2.02909
G1 X196.384 Y172.798 E2.03505
G1 X196.266 Y172.728 E2.03962
G1 X196.146 Y172.665 E2.04412
G1 X196.023 Y172.609 E2.04862
G1 X195.937 Y172.575 E2.05169
G1 X195.77 Y172.516 E2.05759
G1 X195.636 Y172.479 E2.06221
G1 X195.462 Y172.441 E2.06813
G1 X195.283 Y172.415 E2.07415
G1 X195.103 Y172.402 E2.08015
G1 X194.966 Y172.4 E2.08471
G1 X194.83 Y172.405 E2.08924
G1 X194.737 Y172.413 E2.09234
G1 X194.56 Y172.437 E2.09828
G1 X194.383 Y172.473 E2.10429
G1 X194.252 Y172.509 E2.10881
G1 X194.121 Y172.552 E2.11339
G1 X193.955 Y172.62 E2.11936
G1 X193.832 Y172.677 E2.12387
G1 X193.712 Y172.742 E2.12841
G1 X193.596 Y172.812 E2.13291
G1 X193.449 Y172.912 E2.13883
G1 X193.373 Y172.971 E2.14203
G1 X193.24 Y173.087 E2.1479
G1 X193.172 Y173.151 E2.151
G1 X193.078 Y173.248 E2.15549
G1 X192.99 Y173.35 E2.15998
G1 X192.932 Y173.422 E2.16305
G1 X192.854 Y173.532 E2.16754
G1 X192.781 Y173.644 E2.17198
G1 X192.733 Y173.724 E2.17509
G1 X192.671 Y173.843 E2.17955
G1 X192.631 Y173.927 E2.18264
G1 X192.564 Y174.092 E2.18857
G1 X192.519 Y174.221 E2.19311
G1 X192.482 Y174.353 E2.19767
G1 X192.452 Y174.484 E2.20214
G1 X192.428 Y174.617 E2.20663
G1 X192.412 Y174.752 E2.21116
G1 X192.402 Y174.888 E2.21569
G1 X192.4 Y175.024 E2.22022
G1 X192.404 Y175.159 E2.22471
G1 X192.416 Y175.294 E2.22922
G1 X192.428 Y175.386 E2.2323
G1 X192.452 Y175.518 E2.23676
G1 X192.482 Y175.649 E2.24123
G1 X192.519 Y175.781 E2.24579
G1 X192.564 Y175.911 E2.25037
G1 X192.634 Y176.077 E2.25636
G1 X192.713 Y176.236 E2.26227
G1 X192.782 Y176.356 E2.26687
G1 X192.88 Y176.505 E2.2728
G1 X192.962 Y176.615 E2.27736
G1 X193.051 Y176.721 E2.28197
G1 X193.174 Y176.851 E2.28792
G1 X193.274 Y176.944 E2.29246
G1 X193.376 Y177.031 E2.29692
G1 X193.449 Y177.088 E2.3
G1 X193.56 Y177.165 E2.30449
G1 X193.637 Y177.215 E2.30755
G1 X193.753 Y177.282 E2.312
G1 X193.834 Y177.325 E2.31505
G1 X193.917 Y177.365 E2.31812
G1 X194.04 Y177.416 E2.32255
G1 X194.125 Y177.448 E2.32557
G1 X194.254 Y177.491 E2.33009
G1 X194.385 Y177.527 E2.33461
G1 X194.562 Y177.563 E2.34062
G0 F6000 X194.489 Y177.996
G1 F2700 E-2.65938
G0 F6000 X193.567 Y177.852
G0 X194.167 Y176.523
G0 X156.715 Y204.735
G0 X158.174 Y204.666
G0 X157.436 Y206.46
G0 X156.87 Y207.139
G0 X156.261 Y207.519
G0 X155.328 Y207.983
;TYPE:WALL-INNER
G1 F2700 E2.34062
G1 F1200 X155.482 Y207.961 E2.34579
G1 X155.631 Y207.934 E2.35083
G1 X155.741 Y207.908 E2.35459
G1 X155.886 Y207.867 E2.3596
G1 X155.993 Y207.832 E2.36334
G1 X156.181 Y207.758 E2.37006
