; generated by PrusaSlicer 2.6.0+win64 on 2023-10-16 at 21:03:47 UTC


;
;
; 

; external perimeters extrusion width = 0.45mm
; perimeters extrusion width = 0.45mm
; infill extrusion width = 0.45mm
; solid infill extrusion width = 0.45mm
; top infill extrusion width = 0.40mm
; first layer extrusion width = 0.42mm

; external perimeters extrusion width = 0.45mm
; perimeters extrusion width = 0.45mm
; infill extrusion width = 0.45mm
; solid infill extrusion width = 0.45mm
; top infill extrusion width = 0.40mm
; first layer extrusion width = 0.42mm

; external perimeters extrusion width = 0.45mm
; perimeters extrusion width = 0.45mm
; infill extrusion width = 0.45mm
; solid infill extrusion width = 0.45mm
; top infill extrusion width = 0.40mm
; first layer extrusion width = 0.42mm

M73 P0 R30
M73 Q0 S30
M201 X1000 Y1000 Z200 E5000 ; sets maximum accelerations, mm/sec^2
M203 X200 Y200 Z12 E120 ; sets maximum feedrates, mm / sec
M204 S1250 T1250 ; sets acceleration (S) and retract acceleration (R), mm/sec^2
M205 X8.00 Y8.00 Z0.40 E4.50 ; sets the jerk limits, mm/sec
M205 S0 T0 ; sets the minimum extruding and travel feed rate, mm/sec
;TYPE:Custom
M862.3 P "MK3S" ; printer model check
M862.1 P0.4 ; nozzle diameter check
M115 U3.12.2 ; tell printer latest fw version
G90 ; use absolute coordinates
M83 ; extruder relative mode
M104 S215 ; set extruder temp
M140 S60 ; set bed temp
M190 S60 ; wait for bed temp
M109 S215 ; wait for extruder temp
G28 W ; home all without mesh bed level
G80 ; mesh bed leveling

G1 Z0.2 F720
G1 Y-3 F1000 ; go outside print area
G92 E0
G1 X60 E9 F1000 ; intro line
G1 X100 E12.5 F1000 ; intro line

G92 E0
M221 S95

; Don't change E values below. Excessive value can damage the printer.

M907 E538 ; set extruder motor current
G21 ; set units to millimeters
G90 ; use absolute coordinates
M83 ; use relative distances for extrusion
M900 K0.05 ; Filament gcode LA 1.5
M900 K30 ; Filament gcode LA 1.0
M107
;LAYER_CHANGE
;Z:0.2
;HEIGHT:0.2
;BEFORE_LAYER_CHANGE
G92 E0.0
;0.2


M73 P0 R29
G1 E-.8 F2100
G1 Z.4 F720
;AFTER_LAYER_CHANGE
;0.2
G1 X100.201 Y97.219 F10800
G1 Z.2 F720
G1 E.8 F2100
M204 S800
;TYPE:Skirt/Brim
;WIDTH:0.42
G1 F1200
G1 X101.102 Y96.317 E.03997
G1 X102.404 Y95.393 E.05006
G1 X103.86 Y94.725 E.05023
G1 X105.091 Y94.395 E.03996
G1 X106.685 Y94.245 E.0502
G1 X142.899 Y97.373 E1.13969
G1 X143.911 Y97.514 E.03204
G1 X144.882 Y97.769 E.03148
G1 X146.439 Y98.456 E.05336
G1 X147.811 Y99.422 E.05261
G1 X148.799 Y100.432 E.0443
G1 X149.373 Y101.201 E.03009
G1 X149.876 Y102.076 E.03165
G1 X150.469 Y103.62 E.05186
G1 X150.755 Y105.268 E.05244
G1 X150.74 Y106.682 E.04434
G1 X150.603 Y107.624 E.02985
G1 X150.346 Y108.588 E.03128
G1 X149.85 Y109.776 E.04037
G1 X149.209 Y110.834 E.03879
G1 X148.261 Y111.961 E.04618
G1 X147.172 Y112.875 E.04458
G1 X146.163 Y113.494 E.03712
G1 X145.033 Y113.98 E.03857
G1 X143.854 Y114.298 E.03829
G1 X142.652 Y114.444 E.03796
G1 X124.377 Y113.531 E.57371
G1 X105.889 Y111.314 E.58383
G1 X104.931 Y111.172 E.03037
G1 X104.013 Y110.926 E.0298
G1 X102.532 Y110.278 E.05069
G1 X101.228 Y109.384 E.04957
G1 X100.208 Y108.388 E.0447
G1 X99.351 Y107.205 E.0458
G1 X98.666 Y105.772 E.0498
G1 X98.281 Y104.402 E.04462
G1 X98.131 Y102.908 E.04708
G1 X98.254 Y101.363 E.0486
G1 X98.607 Y99.982 E.04469
G1 X99.245 Y98.577 E.04838
G1 X100.166 Y97.268 E.05018
M204 S1000
G1 X100.473 Y97.484 F10800
M204 S800
G1 F1200
G1 X101.349 Y96.603 E.03895
G1 X102.591 Y95.721 E.04776
G1 X103.984 Y95.081 E.04807
G1 X105.15 Y94.768 E.03785
G1 X106.684 Y94.622 E.04831
G1 X142.866 Y97.748 E1.13869
G1 X143.806 Y97.878 E.02975
G1 X144.718 Y98.113 E.02953
G1 X146.241 Y98.778 E.05211
G1 X147.564 Y99.707 E.05069
G1 X148.5 Y100.662 E.04193
G1 X149.483 Y102.134 E.0555
G1 X150.098 Y103.693 E.05255
G1 X150.379 Y105.295 E.051
G1 X150.366 Y106.633 E.04195
G1 X150.022 Y108.364 E.05534
G1 X149.59 Y109.452 E.0367
G1 X149.012 Y110.461 E.03646
G1 X148.284 Y111.391 E.03703
G1 X147.457 Y112.181 E.03586
G1 X146.301 Y112.989 E.04422
G1 X145.053 Y113.57 E.04316
G1 X143.881 Y113.908 E.03824
G1 X142.634 Y114.067 E.03942
G1 X124.403 Y113.155 E.57233
G1 X105.939 Y110.94 E.58308
G1 X104.231 Y110.6 E.0546
M73 P1 R29
M73 Q1 S30
G1 X102.753 Y109.97 E.05038
G1 X101.455 Y109.083 E.04929
G1 X100.493 Y108.142 E.04219
G1 X99.693 Y107.042 E.04265
G1 X99.014 Y105.628 E.04918
G1 X98.652 Y104.331 E.04222
G1 X98.507 Y102.85 E.04666
G1 X98.628 Y101.413 E.04522
G1 X98.962 Y100.111 E.04215
G1 X99.573 Y98.762 E.04643
G1 X100.439 Y97.533 E.04714
M204 S1000
; printing object 2_planet_gear.stl id:2 copy 0
;WIPE_START
G1 F8640
G1 X101.349 Y96.603 E-.30044
G1 X102.591 Y95.721 E-.35174
G1 X103.173 Y95.454 E-.14782
;WIPE_END
G1 Z.6 F720
G1 X104.66 Y106.922 F10800
G1 Z.2 F720
G1 E.8 F2100
M204 S800
;TYPE:Perimeter
;WIDTH:0.419999
G1 F1200
G1 X104.439 Y106.824 E.00758
G1 X103.96 Y106.502 E.0181
G1 X103.325 Y105.953 E.02632
G1 X102.884 Y105.41 E.02193
G1 X102.615 Y104.97 E.01617
G1 X102.294 Y104.192 E.02639
G1 X102.159 Y103.688 E.01636
G1 X102.098 Y103.05 E.0201
G1 X102.095 Y102.365 E.02148
G1 X102.169 Y101.862 E.01594
G1 X102.422 Y101.054 E.02655
G1 X102.64 Y100.583 E.01627
G1 X102.93 Y100.159 E.01611
G1 X103.342 Y99.63 E.02102
G1 X103.807 Y99.195 E.01996
G1 X104.58 Y98.697 E.02883
G1 X105.352 Y98.391 E.02604
G1 X105.856 Y98.263 E.0163
G1 X106.686 Y98.194 E.02611
G1 X107.198 Y98.217 E.01607
G1 X108.035 Y98.397 E.02684
G1 X108.5 Y98.561 E.01546
G1 X109.306 Y99.007 E.02888
G1 X109.979 Y99.575 E.02761
G1 X110.374 Y100.064 E.01971
G1 X110.754 Y100.635 E.02151
G1 X110.967 Y101.09 E.01575
G1 X111.203 Y101.912 E.02681
G1 X111.278 Y102.462 E.0174
G1 X111.272 Y103.204 E.02327
G1 X111.211 Y103.671 E.01477
G1 X111.087 Y104.172 E.01618
G1 X110.76 Y104.943 E.02626
G1 X110.57 Y105.274 E.01197
G1 X110.213 Y105.768 E.01911
G1 X109.642 Y106.331 E.02514
G1 X109.277 Y106.611 E.01442
G1 X108.837 Y106.878 E.01614
G1 X108.059 Y107.195 E.02634
G1 X107.586 Y107.32 E.01534
G1 X107.082 Y107.394 E.01597
G1 X106.57 Y107.39 E.01605
G1 X105.927 Y107.344 E.02021
G1 X105.397 Y107.225 E.01703
G1 X104.715 Y106.946 E.0231
M204 S1000
G1 X104.503 Y107.27 F10800
M204 S800
;TYPE:External perimeter
G1 F1200
G1 X104.324 Y107.196 E.00607
G1 X103.885 Y106.93 E.01609
G1 X103.216 Y106.375 E.02725
G1 X102.865 Y106.007 E.01595
G1 X102.544 Y105.584 E.01665
G1 X102.277 Y105.139 E.01627
G1 X101.91 Y104.249 E.03018
G1 X101.786 Y103.752 E.01606
G1 X101.695 Y102.789 E.03033
G1 X101.721 Y102.28 E.01598
G1 X101.801 Y101.775 E.01603
G1 X102.091 Y100.851 E.03036
G1 X102.313 Y100.393 E.01596
G1 X102.805 Y99.674 E.02732
G1 X103.161 Y99.27 E.01688
G1 X103.579 Y98.894 E.01763
G1 X104.407 Y98.361 E.03088
G1 X105.3 Y98.006 E.03013
G1 X105.797 Y97.889 E.01601
G1 X106.747 Y97.81 E.02989
G1 X107.25 Y97.842 E.0158
G1 X108.114 Y98.028 E.02771
G1 X108.659 Y98.217 E.01809
G1 X109.521 Y98.695 E.0309
G1 X110.25 Y99.31 E.0299
G1 X110.851 Y100.055 E.03001
G1 X111.113 Y100.501 E.01622
G1 X111.322 Y100.959 E.01578
G1 X111.591 Y101.897 E.0306
G1 X111.655 Y102.464 E.01789
G1 X111.649 Y103.207 E.0233
G1 X111.574 Y103.792 E.01849
G1 X111.445 Y104.293 E.01622
G1 X111.07 Y105.177 E.03011
G1 X110.8 Y105.62 E.01627
G1 X110.497 Y106.018 E.01568
G1 X109.906 Y106.599 E.02599
G1 X109.449 Y106.953 E.01812
G1 X109.005 Y107.216 E.01618
G1 X108.114 Y107.58 E.03018
G1 X107.612 Y107.702 E.0162
G1 X107.106 Y107.771 E.01601
G1 X106.27 Y107.764 E.02621
G1 X105.713 Y107.694 E.0176
G1 X105.213 Y107.567 E.01617
G1 X104.558 Y107.293 E.02226
M204 S1000
G1 X104.474 Y107.079 F10800
;WIPE_START
G1 F8640
G1 X104.324 Y107.196 E-.05849
G1 X103.885 Y106.93 E-.11852
G1 X103.216 Y106.375 E-.20071
G1 X102.865 Y106.007 E-.11743
G1 X102.544 Y105.584 E-.12261
G1 X102.277 Y105.139 E-.11983
G1 X102.174 Y104.889 E-.06241
;WIPE_END
G1 Z.6 F720
G1 X106.677 Y99.981 F10800
G1 Z.2 F720
G1 E.8 F2100
M204 S800
;TYPE:Perimeter
G1 F1200
G1 X107.164 Y100.014 E.0153
G1 X107.691 Y100.157 E.01712
G1 X108.21 Y100.42 E.01824
G1 X108.64 Y100.758 E.01715
G1 X108.993 Y101.168 E.01696
G1 X109.278 Y101.675 E.01824
G1 X109.446 Y102.196 E.01716
G1 X109.511 Y102.733 E.01696
G1 X109.471 Y103.273 E.01698
G1 X109.33 Y103.795 E.01695
G1 X109.07 Y104.315 E.01823
G1 X108.734 Y104.747 E.01716
G1 X108.326 Y105.102 E.01696
G1 X107.819 Y105.388 E.01825
G1 X107.299 Y105.559 E.01716
G1 X106.762 Y105.626 E.01697
G1 X106.223 Y105.589 E.01694
G1 X105.662 Y105.435 E.01824
G1 X105.173 Y105.189 E.01716
G1 X104.745 Y104.857 E.01698
G1 X104.389 Y104.451 E.01693
G1 X104.1 Y103.946 E.01824
G1 X103.927 Y103.426 E.01718
G1 X103.858 Y102.89 E.01694
G1 X103.892 Y102.351 E.01693
G1 X104.047 Y101.777 E.01864
G1 X104.288 Y101.299 E.01678
G1 X104.618 Y100.87 E.01697
G1 X105.023 Y100.512 E.01695
G1 X105.488 Y100.237 E.01694
G1 X106.04 Y100.047 E.0183
G1 X106.617 Y99.976 E.01823
M204 S1000
G1 X106.756 Y100.357 F10800
M204 S800
;TYPE:External perimeter
G1 F1200
G1 X107.168 Y100.396 E.01298
G1 X107.619 Y100.533 E.01478
G1 X108.065 Y100.774 E.01589
G1 X108.427 Y101.075 E.01476
G1 X108.724 Y101.44 E.01475
G1 X108.96 Y101.888 E.01588
G1 X109.092 Y102.34 E.01476
G1 X109.136 Y102.807 E.01471
G1 X109.089 Y103.274 E.01472
G1 X108.954 Y103.724 E.01473
G1 X108.719 Y104.167 E.01572
G1 X108.416 Y104.534 E.01492
G1 X108.053 Y104.833 E.01475
G1 X107.605 Y105.071 E.01591
G1 X107.153 Y105.206 E.01479
G1 X106.687 Y105.251 E.01468
G1 X106.219 Y105.206 E.01474
G1 X105.734 Y105.059 E.01589
G1 X105.319 Y104.836 E.01477
G1 X104.956 Y104.539 E.01471
G1 X104.656 Y104.177 E.01474
G1 X104.416 Y103.73 E.01591
G1 X104.28 Y103.279 E.01477
G1 X104.232 Y102.813 E.01469
G1 X104.275 Y102.345 E.01474
G1 X104.407 Y101.89 E.01485
G1 X104.641 Y101.444 E.01579
G1 X104.937 Y101.079 E.01473
G1 X105.296 Y100.778 E.01469
G1 X105.708 Y100.551 E.01475
G1 X106.186 Y100.398 E.01574
G1 X106.697 Y100.352 E.01609
M204 S1000
G1 X106.957 Y100.011 F10800
;WIPE_START
G1 F8640
G1 X107.168 Y100.396 E-.10923
G1 X107.619 Y100.533 E-.10884
G1 X108.065 Y100.774 E-.11706
G1 X108.427 Y101.075 E-.10871
G1 X108.724 Y101.44 E-.10866
G1 X108.96 Y101.888 E-.11692
G1 X109.092 Y102.34 E-.10873
G1 X109.101 Y102.434 E-.02185
;WIPE_END
G1 Z.6 F720
G1 X108.882 Y98.966 F10800
G1 Z.2 F720
G1 E.8 F2100
M204 S800
;TYPE:Solid infill
;WIDTH:0.430695
G1 F1200
G1 X109.762 Y99.847 E.04015
G1 X110.26 Y100.464 E.02557
G1 X110.476 Y100.832 E.01376
G1 X110.677 Y101.31 E.01672
G1 X108.164 Y98.797 E.11459
G1 X108.004 Y98.737 E.00551
G1 X107.433 Y98.614 E.01883
G1 X110.892 Y102.073 E.15773
G1 X110.939 Y102.42 E.01129
G1 X110.937 Y102.666 E.00793
G1 X106.802 Y98.532 E.18853
G1 X106.292 Y98.57 E.01649
G1 X107.459 Y99.737 E.05321
G1 X107.301 Y99.691 E.00531
G1 X106.826 Y99.653 E.01536
G1 X105.798 Y98.625 E.04688
G1 X105.515 Y98.691 E.00937
G1 X105.373 Y98.748 E.00493
G1 X106.293 Y99.668 E.04195
G1 X106.01 Y99.703 E.00919
G1 X105.836 Y99.759 E.00589
G1 X104.98 Y98.904 E.03901
G1 X104.736 Y99.001 E.00847
G1 X104.61 Y99.082 E.00483
G1 X105.422 Y99.893 E.037
G1 X105.068 Y100.088 E.01303
G1 X104.277 Y99.297 E.03607
G1 X103.952 Y99.52 E.01271
G1 X104.743 Y100.312 E.03609
G1 X104.446 Y100.563 E.01254
G1 X103.664 Y99.781 E.03566
G1 X103.403 Y100.069 E.01253
G1 X104.194 Y100.859 E.03605
G1 X104.04 Y101.052 E.00796
G1 X103.97 Y101.183 E.00479
G1 X103.181 Y100.394 E.03598
G1 X102.958 Y100.72 E.01274
G1 X103.779 Y101.541 E.03744
G1 X103.646 Y101.957 E.01408
G1 X102.774 Y101.084 E.03979
G1 X102.758 Y101.116 E.00115
G1 X102.639 Y101.498 E.0129
G1 X103.552 Y102.411 E.04163
G1 X103.515 Y102.795 E.01244
G1 X103.529 Y102.937 E.0046
G1 X102.508 Y101.915 E.04658
G1 X102.433 Y102.389 E.01547
G1 X103.88 Y103.835 E.06596
M204 S1000
;WIPE_START
G1 F8640
G1 X102.433 Y102.389 E-.47235
G1 X102.508 Y101.915 E-.11081
G1 X103.172 Y102.579 E-.21684
;WIPE_END
G1 Z.6 F720
G1 X109.491 Y101.769 F10800
G1 Z.2 F720
G1 E.8 F2100
M204 S800
G1 F1200
G1 X110.933 Y103.211 E.06575
G1 X110.861 Y103.688 E.01555
G1 X109.842 Y102.668 E.04649
G1 X109.853 Y102.795 E.00411
G1 X109.815 Y103.19 E.0128
G1 X110.741 Y104.116 E.04223
G1 X110.578 Y104.502 E.01351
G1 X109.724 Y103.647 E.03896
G1 X109.586 Y104.057 E.01395
G1 X110.411 Y104.883 E.03764
G1 X110.202 Y105.222 E.01284
G1 X109.398 Y104.418 E.03666
G1 X109.34 Y104.529 E.00404
G1 X109.17 Y104.739 E.00871
G1 X109.965 Y105.534 E.03625
G1 X109.69 Y105.807 E.01249
G1 X108.924 Y105.041 E.03493
G1 X108.623 Y105.289 E.01258
G1 X109.414 Y106.079 E.03605
G1 X109.104 Y106.317 E.0126
M73 Q1 S29
G1 X108.298 Y105.512 E.03673
G1 X107.941 Y105.703 E.01305
G1 X108.764 Y106.526 E.03753
G1 X108.685 Y106.573 E.00296
G1 X108.385 Y106.695 E.01044
G1 X107.528 Y105.839 E.03906
G1 X107.288 Y105.911 E.00808
G1 X107.073 Y105.932 E.00697
G1 X107.995 Y106.854 E.04204
G1 X107.568 Y106.975 E.01431
G1 X106.548 Y105.955 E.04651
G1 X106.083 Y105.911 E.01506
G1 X105.901 Y105.857 E.00612
G1 X107.094 Y107.05 E.0544
G1 X106.546 Y107.05 E.01767
G1 X102.428 Y102.932 E.18778
G1 X102.486 Y103.538 E.01963
G1 X105.953 Y107.005 E.15809
G1 X105.441 Y106.886 E.01695
G1 X105.173 Y106.774 E.00937
G1 X102.71 Y104.311 E.11231
G1 X102.919 Y104.817 E.01765
G1 X103.14 Y105.185 E.01384
G1 X103.379 Y105.507 E.01293
G1 X104.535 Y106.684 E.05319
M204 S1000
; stop printing object 2_planet_gear.stl id:2 copy 0
; printing object 2_planet_gear.stl id:0 copy 0
;WIPE_START
G1 F8640
G1 X103.379 Y105.507 E-.38093
G1 X103.14 Y105.185 E-.09259
G1 X102.919 Y104.817 E-.09912
G1 X102.71 Y104.311 E-.12641
G1 X103.019 Y104.62 E-.10095
;WIPE_END
G1 Z.6 F720
G1 X122.976 Y109.122 F10800
G1 Z.2 F720
G1 E.8 F2100
M204 S800
;TYPE:Perimeter
;WIDTH:0.419999
G1 F1200
G1 X122.755 Y109.025 E.00757
G1 X122.276 Y108.702 E.01811
G1 X121.641 Y108.154 E.0263
G1 X121.2 Y107.61 E.02196
G1 X120.931 Y107.17 E.01617
G1 X120.61 Y106.393 E.02636
G1 X120.475 Y105.889 E.01636
G1 X120.414 Y105.25 E.02013
G1 X120.411 Y104.566 E.02145
G1 X120.485 Y104.062 E.01597
G1 X120.738 Y103.254 E.02655
G1 X120.956 Y102.783 E.01627
G1 X121.246 Y102.36 E.01608
G1 X121.658 Y101.83 E.02105
G1 X122.123 Y101.396 E.01994
G1 X122.896 Y100.898 E.02883
G1 X123.668 Y100.591 E.02605
G1 X124.172 Y100.463 E.0163
G1 X125.002 Y100.394 E.02611
G1 X125.515 Y100.417 E.0161
G1 X126.351 Y100.597 E.02681
G1 X126.816 Y100.761 E.01546
G1 X127.622 Y101.208 E.0289
G1 X128.295 Y101.776 E.02761
G1 X128.69 Y102.265 E.01971
G1 X129.07 Y102.836 E.02151
G1 X129.283 Y103.291 E.01575
G1 X129.519 Y104.112 E.02678
G1 X129.594 Y104.662 E.0174
G1 X129.588 Y105.405 E.0233
G1 X129.527 Y105.872 E.01477
G1 X129.403 Y106.372 E.01615
G1 X129.076 Y107.144 E.02629
G1 X128.886 Y107.474 E.01194
G1 X128.529 Y107.968 E.01911
G1 X127.958 Y108.531 E.02514
G1 X127.593 Y108.812 E.01444
G1 X127.153 Y109.078 E.01612
G1 X126.375 Y109.396 E.02635
G1 X125.903 Y109.521 E.01531
G1 X125.398 Y109.594 E.016
G1 X124.886 Y109.59 E.01605
G1 X124.243 Y109.545 E.02021
G1 X123.713 Y109.425 E.01704
G1 X123.031 Y109.146 E.0231
M204 S1000
G1 X122.819 Y109.471 F10800
M204 S800
;TYPE:External perimeter
G1 F1200
G1 X122.64 Y109.396 E.00609
G1 X122.202 Y109.131 E.01605
G1 X121.532 Y108.576 E.02728
G1 X121.181 Y108.207 E.01597
G1 X120.86 Y107.785 E.01662
G1 X120.593 Y107.34 E.01627
G1 X120.226 Y106.449 E.03021
G1 X120.102 Y105.952 E.01606
G1 X120.011 Y104.99 E.0303
G1 X120.037 Y104.48 E.01601
G1 X120.117 Y103.976 E.016
G1 X120.407 Y103.052 E.03036
G1 X120.629 Y102.593 E.01599
G1 X121.121 Y101.874 E.02732
G1 X121.477 Y101.47 E.01688
G1 X121.895 Y101.094 E.01763
G1 X122.723 Y100.561 E.03088
G1 X123.616 Y100.206 E.03013
G1 X124.113 Y100.09 E.016
G1 X125.063 Y100.011 E.02989
G1 X125.566 Y100.043 E.0158
G1 X126.43 Y100.229 E.02771
G1 X126.975 Y100.418 E.01809
G1 X127.837 Y100.896 E.0309
G1 X128.566 Y101.511 E.0299
G1 X129.167 Y102.256 E.03001
G1 X129.429 Y102.702 E.01622
G1 X129.638 Y103.16 E.01578
G1 X129.907 Y104.098 E.0306
G1 X129.971 Y104.665 E.01789
G1 X129.965 Y105.408 E.0233
G1 X129.89 Y105.993 E.01849
G1 X129.761 Y106.493 E.01619
G1 X129.387 Y107.378 E.03012
G1 X129.116 Y107.82 E.01626
G1 X128.813 Y108.218 E.01568
G1 X128.222 Y108.8 E.02601
G1 X127.765 Y109.153 E.01811
G1 X127.321 Y109.417 E.0162
G1 X126.43 Y109.78 E.03017
G1 X125.928 Y109.903 E.01621
G1 X125.422 Y109.972 E.01601
