; generated by PrusaSlicer 2.6.0+win64 on 2023-10-16 at 21:41:51 UTC


;
;
; 

; external perimeters extrusion width = 0.45mm
; perimeters extrusion width = 0.45mm
; infill extrusion width = 0.45mm
; solid infill extrusion width = 0.45mm
; top infill extrusion width = 0.40mm
; first layer extrusion width = 0.42mm

M73 P0 R61
M73 Q0 S64
M201 X1000 Y1000 Z200 E5000 ; sets maximum accelerations, mm/sec^2
M203 X200 Y200 Z12 E120 ; sets maximum feedrates, mm / sec
M204 S1250 T1250 ; sets acceleration (S) and retract acceleration (R), mm/sec^2
M205 X8.00 Y8.00 Z0.40 E4.50 ; sets the jerk limits, mm/sec
M205 S0 T0 ; sets the minimum extruding and travel feed rate, mm/sec
;TYPE:Custom
M862.3 P "MK3S" ; printer model check
M862.1 P0.4 ; nozzle diameter check
M115 U3.12.2 ; tell printer latest fw version
G90 ; use absolute coordinates
M83 ; extruder relative mode
M104 S215 ; set extruder temp
M140 S60 ; set bed temp
M190 S60 ; wait for bed temp
M109 S215 ; wait for extruder temp
G28 W ; home all without mesh bed level
G80 ; mesh bed leveling

G1 Z0.2 F720
G1 Y-3 F1000 ; go outside print area
G92 E0
G1 X60 E9 F1000 ; intro line
G1 X100 E12.5 F1000 ; intro line

G92 E0
M221 S95

; Don't change E values below. Excessive value can damage the printer.

M907 E538 ; set extruder motor current
G21 ; set units to millimeters
G90 ; use absolute coordinates
M83 ; use relative distances for extrusion
M900 K0.05 ; Filament gcode LA 1.5
M900 K30 ; Filament gcode LA 1.0
M107
;LAYER_CHANGE
;Z:0.2
;HEIGHT:0.2
;BEFORE_LAYER_CHANGE
G92 E0.0
;0.2


G1 E-.8 F2100
G1 Z.4 F720
;AFTER_LAYER_CHANGE
;0.2
G1 X101.633 Y85.59 F10800
G1 Z.2 F720
G1 E.8 F2100
M204 S800
;TYPE:Skirt/Brim
;WIDTH:0.42
G1 F1200
G1 X103.717 Y83.326 E.09648
G1 X106.009 Y81.292 E.09608
G1 X108.482 Y79.507 E.09563
G1 X111.092 Y77.994 E.09459
G1 X113.512 Y76.879 E.08354
G1 X116.377 Y75.873 E.09521
G1 X119.356 Y75.152 E.0961
G1 X122.406 Y74.734 E.09652
G1 X125.434 Y74.627 E.095
G1 X128.08 Y74.78 E.0831
G1 X131.122 Y75.246 E.09649
G1 X134.063 Y76.007 E.09525
G1 X136.961 Y77.077 E.09686
G1 X139.309 Y78.204 E.08166
G1 X141.946 Y79.789 E.09647
G1 X144.41 Y81.633 E.0965
G1 X146.674 Y83.717 E.09648
G1 X148.691 Y85.987 E.09521
G1 X150.493 Y88.482 E.0965
G1 X152.034 Y91.146 E.0965
G1 X153.292 Y93.941 E.0961
G1 X154.139 Y96.416 E.08202
G1 X154.858 Y99.408 E.09648
G1 X155.267 Y102.418 E.09524
G1 X155.373 Y105.493 E.09647
G1 X155.167 Y108.563 E.09647
G1 X154.652 Y111.596 E.09646
G1 X153.833 Y114.562 E.09648
G1 X152.907 Y116.998 E.08171
G1 X151.55 Y119.76 E.09649
G1 X149.944 Y122.337 E.09521
G1 X148.062 Y124.772 E.09649
G1 X146.283 Y126.674 E.08166
G1 X144.013 Y128.691 E.09521
G1 X141.518 Y130.493 E.0965
G1 X138.854 Y132.034 E.0965
G1 X136.048 Y133.297 E.09648
G1 X133.129 Y134.269 E.09646
G1 X130.592 Y134.858 E.08166
G1 X127.582 Y135.267 E.09524
G1 X124.507 Y135.373 E.09647
G1 X121.907 Y135.219 E.08166
G1 X118.878 Y134.754 E.09608
G1 X115.937 Y133.993 E.09525
G1 X113.039 Y132.923 E.09686
G1 X110.691 Y131.796 E.08166
G1 X108.053 Y130.211 E.09649
G1 X105.59 Y128.367 E.09647
G1 X103.326 Y126.283 E.09648
G1 X101.284 Y123.981 E.09648
G1 X99.485 Y121.485 E.09647
G1 X97.966 Y118.854 E.09525
G1 X96.708 Y116.059 E.0961
G1 X95.861 Y113.584 E.08202
G1 X95.145 Y110.604 E.09609
G1 X94.734 Y107.594 E.09525
G1 X94.627 Y104.507 E.09685
G1 X94.831 Y101.45 E.09606
G1 X95.345 Y98.416 E.09648
G1 X96.149 Y95.494 E.09502
G1 X97.088 Y93.014 E.08315
G1 X98.424 Y90.287 E.09521
G1 X100.049 Y87.674 E.09648
G1 X101.597 Y85.638 E.08019
M204 S1000
; printing object 4_carrier.stl id:0 copy 0
;WIPE_START
G1 F8640
G1 X103.717 Y83.326 E-.7243
G1 X103.962 Y83.108 E-.0757
;WIPE_END
G1 Z.6 F720
G1 X148.565 Y91.473 F10800
G1 Z.2 F720
G1 E.8 F2100
M204 S800
;TYPE:Perimeter
;WIDTH:0.492162
G1 F1200
G1 X148.986 Y92.201 E.03141
;WIDTH:0.456081
G1 X149.226 Y92.605 E.01614
;WIDTH:0.419999
G1 X149.823 Y93.848 E.04324
G1 X150.353 Y95.112 E.04297
G1 X150.674 Y95.979 E.02899
G1 X151.099 Y97.293 E.0433
G1 X151.455 Y98.625 E.04323
G1 X151.744 Y99.973 E.04323
G1 X151.965 Y101.334 E.04323
G1 X152.116 Y102.705 E.04325
G1 X152.198 Y104.226 E.04776
G1 X152.209 Y105.46 E.03869
G1 X152.151 Y106.837 E.04321
G1 X152.023 Y108.21 E.04324
G1 X151.825 Y109.574 E.04322
G1 X151.559 Y110.927 E.04323
G1 X151.225 Y112.265 E.04324
G1 X150.823 Y113.586 E.04329
M73 Q0 S63
G1 X150.52 Y114.449 E.02868
G1 X150.006 Y115.734 E.04339
G1 X149.632 Y116.568 E.02866
G1 X149.013 Y117.803 E.04331
G1 X148.334 Y119.002 E.0432
G1 X147.595 Y120.166 E.04323
G1 X146.797 Y121.291 E.04325
G1 X145.944 Y122.374 E.04322
G1 X145.037 Y123.413 E.04324
G1 X144.079 Y124.404 E.04322
G1 X143.072 Y125.346 E.04323
G1 X142.018 Y126.235 E.04323
G1 X140.921 Y127.069 E.04321
G1 X139.783 Y127.847 E.04322
G1 X138.606 Y128.567 E.04326
G1 X137.395 Y129.226 E.04323
G1 X136.152 Y129.823 E.04324
G1 X134.881 Y130.356 E.04321
G1 X133.584 Y130.823 E.04322
G1 X132.265 Y131.225 E.04323
G1 X130.927 Y131.559 E.04324
G1 X129.572 Y131.826 E.0433
G1 X128.668 Y131.964 E.02867
G1 X127.295 Y132.116 E.04331
G1 X126.193 Y132.181 E.03461
;WIDTH:0.465439
G1 X125.895 Y132.168 E.01048
;WIDTH:0.510879
G1 X125.597 Y132.154 E.01161
G1 X125.056 Y132.174 E.02107
;WIDTH:0.501629
G1 X124.266 Y132.177 E.03013
;WIDTH:0.460814
G1 X123.997 Y132.186 E.00935
;WIDTH:0.419999
G1 X123.163 Y132.151 E.02617
G1 X121.798 Y132.024 E.04298
G1 X120.882 Y131.899 E.02899
G1 X119.522 Y131.656 E.04332
G1 X118.179 Y131.344 E.04323
G1 X116.854 Y130.965 E.04321
G1 X115.549 Y130.519 E.04324
G1 X114.266 Y130.006 E.04332
G1 X113.432 Y129.632 E.02866
G1 X112.197 Y129.013 E.04331
G1 X110.997 Y128.334 E.04323
G1 X109.834 Y127.595 E.0432
G1 X108.709 Y126.797 E.04325
G1 X107.626 Y125.944 E.04322
G1 X106.587 Y125.037 E.04324
G1 X105.596 Y124.079 E.04322
G1 X104.654 Y123.072 E.04323
G1 X103.765 Y122.018 E.04323
G1 X102.931 Y120.921 E.04321
G1 X102.153 Y119.783 E.04322
G1 X101.433 Y118.606 E.04326
G1 X100.774 Y117.395 E.04323
G1 X100.177 Y116.152 E.04324
G1 X99.647 Y114.888 E.04297
G1 X99.326 Y114.021 E.02899
G1 X98.901 Y112.707 E.0433
G1 X98.545 Y111.375 E.04323
G1 X98.256 Y110.027 E.04323
G1 X98.035 Y108.666 E.04323
G1 X97.884 Y107.295 E.04325
G1 X97.803 Y105.919 E.04322
G1 X97.791 Y104.54 E.04324
G1 X97.849 Y103.163 E.04321
G1 X97.977 Y101.79 E.04324
G1 X98.175 Y100.425 E.04325
G1 X98.439 Y99.08 E.04298
G1 X98.655 Y98.181 E.02899
G1 X99.035 Y96.854 E.04328
G1 X99.481 Y95.549 E.04324
G1 X99.993 Y94.268 E.04325
G1 X100.565 Y93.023 E.04296
G1 X100.88 Y92.406 E.02172
;WIDTH:0.460276
G1 X101.055 Y92.128 E.0114
;WIDTH:0.500553
G1 X101.23 Y91.85 E.0125
G1 X101.495 Y91.363 E.0211
;WIDTH:0.514389
G1 X101.798 Y90.877 E.02245
G1 X101.934 Y90.62 E.0114
;WIDTH:0.467194
G1 X102.069 Y90.363 E.01024
;WIDTH:0.419999
G1 X102.405 Y89.834 E.01965
G1 X103.203 Y88.709 E.04325
G1 X104.056 Y87.626 E.04322
G1 X104.963 Y86.587 E.04324
G1 X105.921 Y85.596 E.04322
G1 X106.928 Y84.654 E.04323
G1 X107.976 Y83.77 E.04299
G1 X108.707 Y83.204 E.02899
G1 X109.834 Y82.405 E.04332
G1 X110.998 Y81.666 E.04323
G1 X112.197 Y80.987 E.0432
G1 X113.43 Y80.369 E.04324
G1 X114.692 Y79.815 E.04321
G1 X115.981 Y79.325 E.04324
G1 X117.293 Y78.901 E.04323
G1 X118.625 Y78.545 E.04323
G1 X119.973 Y78.256 E.04323
G1 X121.334 Y78.035 E.04323
G1 X122.705 Y77.884 E.04325
G1 X124.081 Y77.803 E.04322
G1 X125.452 Y77.791 E.04299
G1 X126.376 Y77.822 E.02899
G1 X127.753 Y77.927 E.0433
G1 X129.121 Y78.101 E.04324
G1 X130.478 Y78.344 E.04322
G1 X131.821 Y78.656 E.04323
G1 X133.147 Y79.035 E.04324
G1 X134.451 Y79.481 E.04321
G1 X135.734 Y79.994 E.04332
G1 X136.568 Y80.368 E.02866
G1 X137.803 Y80.987 E.04331
G1 X139.003 Y81.666 E.04323
G1 X140.166 Y82.405 E.0432
G1 X141.291 Y83.203 E.04325
G1 X142.374 Y84.056 E.04322
G1 X143.413 Y84.963 E.04324
G1 X144.404 Y85.921 E.04322
G1 X145.346 Y86.928 E.04323
G1 X146.235 Y87.982 E.04323
G1 X147.069 Y89.079 E.04321
G1 X147.894 Y90.293 E.04602
;WIDTH:0.453377
G1 X147.98 Y90.466 E.00659
;WIDTH:0.486754
G1 X148.066 Y90.639 E.00713
;WIDTH:0.520131
G1 X148.152 Y90.811 E.00763
G1 X148.462 Y91.286 E.02251
;WIDTH:0.492162
G1 X148.536 Y91.42 E.00572
M204 S1000
G1 X148.929 Y91.27 F10800
M204 S800
;TYPE:External perimeter
;WIDTH:0.419999
G1 F1200
G1 X149.562 Y92.433 E.04152
G1 X150.167 Y93.693 E.04382
G1 X150.704 Y94.974 E.04355
G1 X151.03 Y95.855 E.02945
G1 X151.46 Y97.186 E.04386
G1 X151.822 Y98.537 E.04385
G1 X152.115 Y99.903 E.0438
G1 X152.338 Y101.283 E.04383
G1 X152.492 Y102.673 E.04385
G1 X152.575 Y104.223 E.04867
G1 X152.586 Y105.466 E.03897
G1 X152.527 Y106.863 E.04384
G1 X152.397 Y108.254 E.0438
G1 X152.197 Y109.638 E.04385
G1 X151.928 Y111.009 E.04381
G1 X151.589 Y112.366 E.04386
G1 X151.181 Y113.704 E.04386
G1 X150.873 Y114.581 E.02914
G1 X150.354 Y115.881 E.04389
G1 X149.972 Y116.73 E.02919
G1 X149.346 Y117.98 E.04383
G1 X148.657 Y119.197 E.04385
G1 X147.908 Y120.377 E.04382
G1 X147.1 Y121.517 E.04381
G1 X146.235 Y122.615 E.04383
G1 X145.315 Y123.668 E.04384
G1 X144.344 Y124.673 E.04382
G1 X143.322 Y125.628 E.04386
G1 X142.254 Y126.529 E.04381
G1 X141.141 Y127.375 E.04383
G1 X139.987 Y128.164 E.04383
G1 X138.795 Y128.894 E.04383
G1 X137.567 Y129.562 E.04383
G1 X136.307 Y130.167 E.04382
G1 X135.018 Y130.707 E.04382
G1 X133.703 Y131.181 E.04383
G1 X132.366 Y131.589 E.04383
G1 X131.009 Y131.928 E.04386
G1 X129.637 Y132.197 E.04384
G1 X128.718 Y132.338 E.02915
G1 X127.327 Y132.492 E.04388
G1 X125.932 Y132.574 E.04381
G1 X124.534 Y132.586 E.04383
G1 X123.137 Y132.527 E.04384
G1 X121.755 Y132.398 E.04352
G1 X120.823 Y132.272 E.02949
G1 X119.446 Y132.025 E.04386
G1 X118.085 Y131.709 E.04381
G1 X116.741 Y131.325 E.04383
G1 X115.418 Y130.872 E.04385
G1 X114.119 Y130.354 E.04385
G1 X113.27 Y129.972 E.02919
G1 X112.02 Y129.346 E.04383
G1 X110.803 Y128.657 E.04385
G1 X109.623 Y127.908 E.04382
G1 X108.483 Y127.1 E.04381
G1 X107.385 Y126.235 E.04383
G1 X106.332 Y125.315 E.04384
G1 X105.327 Y124.344 E.04382
G1 X104.372 Y123.322 E.04386
G1 X103.471 Y122.254 E.04381
G1 X102.625 Y121.141 E.04383
G1 X101.836 Y119.987 E.04383
G1 X101.106 Y118.795 E.04383
G1 X100.438 Y117.567 E.04383
G1 X99.833 Y116.307 E.04382
G1 X99.296 Y115.026 E.04355
G1 X98.97 Y114.145 E.02945
G1 X98.54 Y112.814 E.04386
G1 X98.178 Y111.463 E.04385
G1 X97.885 Y110.097 E.0438
G1 X97.662 Y108.717 E.04383
G1 X97.508 Y107.327 E.04385
G1 X97.426 Y105.932 E.04381
G1 X97.414 Y104.534 E.04383
G1 X97.473 Y103.137 E.04384
G1 X97.603 Y101.746 E.0438
G1 X97.803 Y100.362 E.04385
G1 X98.071 Y99 E.04352
G1 X98.291 Y98.085 E.02951
G1 X98.675 Y96.741 E.04383
G1 X99.128 Y95.418 E.04385
G1 X99.646 Y94.12 E.04382
G1 X100.226 Y92.858 E.04355
G1 X100.654 Y92.021 E.02948
G1 X101.343 Y90.803 E.04388
G1 X102.092 Y89.623 E.04382
G1 X102.9 Y88.483 E.04381
G1 X103.765 Y87.385 E.04383
G1 X104.685 Y86.332 E.04384
G1 X105.656 Y85.327 E.04382
G1 X106.678 Y84.372 E.04386
G1 X107.739 Y83.477 E.04352
G1 X108.482 Y82.901 E.02948
G1 X109.623 Y82.092 E.04386
G1 X110.803 Y81.343 E.04382
G1 X112.02 Y80.654 E.04385
G1 X113.27 Y80.028 E.04383
G1 X114.55 Y79.466 E.04383
G1 X115.856 Y78.969 E.04381
G1 X117.186 Y78.54 E.04382
G1 X118.537 Y78.178 E.04385
G1 X119.903 Y77.885 E.0438
G1 X121.283 Y77.662 E.04383
G1 X122.673 Y77.508 E.04385
G1 X124.068 Y77.426 E.04381
G1 X125.457 Y77.414 E.04355
G1 X126.397 Y77.445 E.02949
G1 X127.791 Y77.552 E.04384
G1 X129.178 Y77.728 E.04384
G1 X130.554 Y77.975 E.04383
G1 X131.915 Y78.291 E.04381
G1 X133.259 Y78.675 E.04383
G1 X134.582 Y79.127 E.04384
G1 X135.881 Y79.646 E.04386
G1 X136.73 Y80.028 E.02919
G1 X137.98 Y80.654 E.04383
G1 X139.197 Y81.343 E.04385
G1 X140.376 Y82.092 E.0438
G1 X141.517 Y82.9 E.04384
G1 X142.615 Y83.765 E.04383
G1 X143.668 Y84.685 E.04384
G1 X144.673 Y85.656 E.04382
G1 X145.628 Y86.678 E.04386
G1 X146.529 Y87.746 E.04381
G1 X147.375 Y88.859 E.04383
G1 X148.164 Y90.013 E.04383
G1 X148.9 Y91.217 E.04425
M204 S1000
G1 X148.729 Y91.616 F10800
G1 X148.297 Y91.917
M204 S800
;TYPE:Perimeter
;WIDTH:0.49578
G1 F1200
G1 X148.383 Y92.243 E.0127
;WIDTH:0.45789
G1 X148.445 Y92.523 E.0099
;WIDTH:0.419999
G1 X148.487 Y93.038 E.0162
G1 X148.43 Y93.552 E.01621
G1 X148.275 Y94.049 E.01632
G1 X148.006 Y94.539 E.01753
G1 X147.673 Y94.933 E.01617
G1 X147.27 Y95.257 E.01621
G1 X146.809 Y95.5 E.01634
G1 X146.273 Y95.658 E.01752
G1 X145.767 Y95.703 E.01593
G1 X145.244 Y95.648 E.01649
G1 X144.746 Y95.494 E.01634
G1 X144.297 Y95.258 E.0159
G1 X143.891 Y94.93 E.01636
G1 X143.567 Y94.548 E.01571
G1 X143.319 Y94.11 E.01578
G1 X143.153 Y93.61 E.01652
G1 X143.098 Y93.218 E.01241
G1 X143.115 Y92.577 E.02011
G1 X143.259 Y92.04 E.01743
G1 X143.491 Y91.571 E.01641
G1 X143.805 Y91.16 E.01622
G1 X144.189 Y90.819 E.0161
G1 X144.674 Y90.537 E.01759
G1 X145.168 Y90.369 E.01636
G1 X145.68 Y90.299 E.0162
G1 X146.237 Y90.336 E.0175
G1 X146.74 Y90.472 E.01634
G1 X147.237 Y90.721 E.01743
;WIDTH:0.449174
G1 X147.453 Y90.871 E.00888
;WIDTH:0.478349
G1 X147.668 Y91.021 E.00949
;WIDTH:0.520131
G1 X147.765 Y91.088 E.00468
G1 X148.078 Y91.508 E.02078
;WIDTH:0.49578
G1 X148.269 Y91.864 E.01521
M204 S1000
G1 X147.952 Y92.173 F10800
M204 S800
;TYPE:External perimeter
;WIDTH:0.419999
G1 F1200
G1 X148.07 Y92.561 E.01272
G1 X148.111 Y93.004 E.01395
G1 X148.068 Y93.447 E.01396
G1 X147.94 Y93.875 E.01401
G1 X147.713 Y94.301 E.01513
G1 X147.43 Y94.644 E.01394
G1 X147.087 Y94.928 E.01396
G1 X146.695 Y95.141 E.01399
G1 X146.233 Y95.283 E.01515
G1 X145.79 Y95.326 E.01396
G1 X145.348 Y95.285 E.01392
G1 X144.782 Y95.088 E.01879
G1 X144.492 Y94.934 E.0103
G1 X144.147 Y94.653 E.01395
G1 X143.863 Y94.311 E.01394
G1 X143.648 Y93.919 E.01402
G1 X143.49 Y93.336 E.01894
G1 X143.472 Y93.176 E.00505
G1 X143.491 Y92.608 E.01782
G1 X143.634 Y92.112 E.01619
G1 X143.845 Y91.715 E.0141
G1 X144.125 Y91.369 E.01396
G1 X144.467 Y91.083 E.01398
G1 X144.891 Y90.852 E.01514
G1 X145.317 Y90.721 E.01397
G1 X145.761 Y90.673 E.014
G1 X146.242 Y90.719 E.01515
G1 X146.669 Y90.848 E.01399
G1 X147.093 Y91.076 E.01509
G1 X147.436 Y91.361 E.01398
G1 X147.786 Y91.829 E.01832
G1 X147.935 Y92.115 E.01011
M204 S1000
G1 X148.348 Y92.228 F10800
;WIPE_START
G1 F8640
G1 X148.07 Y92.561 E-.1076
G1 X148.111 Y93.004 E-.10273
G1 X148.068 Y93.447 E-.10277
G1 X147.94 Y93.875 E-.10315
G1 X147.713 Y94.301 E-.11146
G1 X147.43 Y94.644 E-.10268
G1 X147.087 Y94.928 E-.10282
G1 X146.833 Y95.066 E-.06679
;WIPE_END
G1 Z.6 F720
G1 X118.126 Y90.853 F10800
G1 Z.2 F720
G1 E.8 F2100
M204 S800
;TYPE:Perimeter
G1 F1200
G1 X118.857 Y90.52 E.02519
G1 X119.621 Y90.219 E.02575
G1 X120.392 Y89.961 E.02549
G1 X120.938 Y89.804 E.01781
G1 X121.724 Y89.616 E.02534
G1 X122.531 Y89.466 E.02574
G1 X123.087 Y89.388 E.0176
G1 X123.738 Y89.325 E.02051
M73 P1 R61
G1 X124.527 Y89.282 E.02478
G1 X125.33 Y89.278 E.02518
G1 X126.352 Y89.329 E.03208
G1 X127.168 Y89.421 E.02575
G1 X127.979 Y89.555 E.02577
G1 X128.781 Y89.732 E.02575
G1 X129.565 Y89.948 E.0255
G1 X130.098 Y90.12 E.01756
G1 X130.863 Y90.404 E.02559
G1 X131.617 Y90.73 E.02576
G1 X132.352 Y91.095 E.02573
G1 X133.068 Y91.498 E.02576
G1 X133.756 Y91.933 E.02552
G1 X134.215 Y92.253 E.01754
G1 X134.864 Y92.748 E.02559
G1 X135.347 Y93.158 E.01986
G1 X136.087 Y93.843 E.03162
G1 X136.655 Y94.437 E.02577
G1 X137.454 Y95.395 E.03911
G1 X138.008 Y96.157 E.02954
G1 X138.452 Y96.848 E.02575
G1 X138.859 Y97.561 E.02574
M73 Q1 S63
G1 X139.1 Y98.04 E.01681
G1 X139.556 Y99.039 E.03443
G1 X139.759 Y99.561 E.01756
G1 X140.021 Y100.334 E.02559
G1 X140.244 Y101.124 E.02574
G1 X140.406 Y101.839 E.02299
G1 X140.508 Y102.403 E.01797
G1 X140.661 Y103.543 E.03606
G1 X140.704 Y104.101 E.01755
G1 X140.729 Y104.917 E.0256
G1 X140.712 Y105.738 E.02575
G1 X140.653 Y106.55 E.02553
G1 X140.588 Y107.105 E.01752
G1 X140.494 Y107.688 E.01852
G1 X140.339 Y108.461 E.02472
G1 X140.146 Y109.225 E.02471
G1 X139.907 Y110.003 E.02552
G1 X139.521 Y111.046 E.03487
G1 X139.296 Y111.559 E.01756
G1 X138.937 Y112.292 E.02559
G1 X138.537 Y113.009 E.02574
G1 X138.101 Y113.705 E.02575
G1 X137.629 Y114.377 E.02575
G1 X137.127 Y115.018 E.02553
G1 X136.763 Y115.443 E.01754
G1 X136.205 Y116.039 E.0256
G1 X135.614 Y116.609 E.02574
G1 X134.999 Y117.142 E.02552
G1 X134.561 Y117.49 E.01754
G1 X133.9 Y117.969 E.02559
