; generated by PrusaSlicer 2.6.0+win64 on 2023-10-17 at 20:10:51 UTC


;
;
; 

; external perimeters extrusion width = 0.45mm
; perimeters extrusion width = 0.45mm
; infill extrusion width = 0.45mm
; solid infill extrusion width = 0.45mm
; top infill extrusion width = 0.40mm
; first layer extrusion width = 0.42mm

M73 P0 R86
M73 Q0 S89
M201 X1000 Y1000 Z200 E5000 ; sets maximum accelerations, mm/sec^2
M203 X200 Y200 Z12 E120 ; sets maximum feedrates, mm / sec
M204 S1250 T1250 ; sets acceleration (S) and retract acceleration (R), mm/sec^2
M205 X8.00 Y8.00 Z0.40 E4.50 ; sets the jerk limits, mm/sec
M205 S0 T0 ; sets the minimum extruding and travel feed rate, mm/sec
;TYPE:Custom
M862.3 P "MK3S" ; printer model check
M862.1 P0.4 ; nozzle diameter check
M115 U3.12.2 ; tell printer latest fw version
G90 ; use absolute coordinates
M83 ; extruder relative mode
M104 S215 ; set extruder temp
M140 S60 ; set bed temp
M190 S60 ; wait for bed temp
M109 S215 ; wait for extruder temp
G28 W ; home all without mesh bed level
G80 ; mesh bed leveling

G1 Z0.2 F720
G1 Y-3 F1000 ; go outside print area
G92 E0
G1 X60 E9 F1000 ; intro line
G1 X100 E12.5 F1000 ; intro line

G92 E0
M221 S95

; Don't change E values below. Excessive value can damage the printer.

M907 E538 ; set extruder motor current
G21 ; set units to millimeters
G90 ; use absolute coordinates
M83 ; use relative distances for extrusion
M900 K0.05 ; Filament gcode LA 1.5
M900 K30 ; Filament gcode LA 1.0
M107
;LAYER_CHANGE
;Z:0.2
;HEIGHT:0.2
;BEFORE_LAYER_CHANGE
G92 E0.0
;0.2


G1 E-.8 F2100
G1 Z.4 F720
;AFTER_LAYER_CHANGE
;0.2
G1 X96.276 Y81.085 F10800
G1 Z.2 F720
G1 E.8 F2100
M204 S800
;TYPE:Skirt/Brim
;WIDTH:0.42
G1 F1200
G1 X98.583 Y78.558 E.10728
G1 X100.191 Y77.044 E.06925
G1 X101.493 Y75.94 E.05352
G1 X104.249 Y73.912 E.10729
G1 X106.122 Y72.741 E.06926
G1 X107.614 Y71.913 E.0535
G1 X110.713 Y70.461 E.1073
G1 X112.778 Y69.678 E.06924
G1 X114.403 Y69.157 E.05351
G1 X117.726 Y68.338 E.10731
G1 X119.904 Y67.972 E.06925
G1 X121.6 Y67.778 E.05352
G1 X125.018 Y67.623 E.10728
G1 X127.173 Y67.687 E.0676
G1 X128.927 Y67.83 E.05518
G1 X132.309 Y68.345 E.10726
G1 X133.962 Y68.713 E.0531
G1 X136.103 Y69.31 E.06969
G1 X139.32 Y70.475 E.10728
G1 X140.869 Y71.159 E.05309
G1 X142.852 Y72.162 E.06968
G1 X145.78 Y73.932 E.10728
G1 X147.166 Y74.905 E.0531
G1 X148.915 Y76.276 E.06968
G1 X151.442 Y78.583 E.10728
G1 X152.965 Y80.201 E.06967
G1 X154.06 Y81.493 E.0531
G1 X156.088 Y84.249 E.10729
G1 X157.266 Y86.133 E.06967
G1 X158.087 Y87.614 E.05309
G1 X159.539 Y90.713 E.1073
G1 X160.15 Y92.292 E.05309
G1 X160.843 Y94.403 E.06966
G1 X161.662 Y97.726 E.10731
G1 X161.954 Y99.394 E.05309
G1 X162.222 Y101.6 E.06968
G1 X162.377 Y105.018 E.10728
G1 X162.338 Y106.711 E.0531
G1 X162.17 Y108.927 E.06968
G1 X161.655 Y112.309 E.10726
G1 X161.287 Y113.962 E.0531
G1 X160.69 Y116.103 E.06969
G1 X159.525 Y119.32 E.10728
G1 X158.613 Y121.346 E.06966
G1 X157.838 Y122.852 E.05311
G1 X156.068 Y125.78 E.10728
G1 X155.095 Y127.166 E.0531
G1 X153.724 Y128.915 E.06968
G1 X151.417 Y131.442 E.10728
G1 X149.799 Y132.965 E.06967
G1 X148.507 Y134.06 E.0531
G1 X145.751 Y136.088 E.10729
G1 X143.867 Y137.266 E.06967
G1 X142.386 Y138.087 E.05309
G1 X139.287 Y139.539 E.1073
G1 X137.708 Y140.15 E.05309
G1 X135.597 Y140.843 E.06966
G1 X132.274 Y141.662 E.10731
G1 X130.606 Y141.954 E.05309
G1 X128.4 Y142.222 E.06968
G1 X124.982 Y142.377 E.10728
G1 X123.289 Y142.338 E.0531
G1 X121.073 Y142.17 E.06968
G1 X117.691 Y141.655 E.10726
G1 X116.038 Y141.287 E.0531
G1 X113.897 Y140.69 E.06969
G1 X110.68 Y139.525 E.10728
G1 X108.654 Y138.613 E.06966
G1 X107.148 Y137.838 E.05311
G1 X104.22 Y136.068 E.10728
G1 X102.834 Y135.095 E.0531
G1 X101.085 Y133.724 E.06968
G1 X98.558 Y131.417 E.10728
G1 X97.388 Y130.192 E.05311
G1 X95.94 Y128.507 E.06966
G1 X93.912 Y125.751 E.10729
G1 X92.734 Y123.867 E.06967
G1 X91.913 Y122.386 E.05309
G1 X90.461 Y119.287 E.1073
G1 X89.85 Y117.708 E.05309
G1 X89.157 Y115.597 E.06966
G1 X88.338 Y112.274 E.10731
G1 X87.972 Y110.096 E.06925
G1 X87.778 Y108.4 E.05352
G1 X87.623 Y104.982 E.10728
G1 X87.687 Y102.827 E.0676
G1 X87.83 Y101.073 E.05518
G1 X88.345 Y97.691 E.10726
G1 X88.713 Y96.038 E.0531
G1 X89.31 Y93.897 E.06969
G1 X90.475 Y90.68 E.10728
G1 X91.381 Y88.666 E.06924
G1 X92.162 Y87.148 E.05353
G1 X93.932 Y84.22 E.10728
G1 X94.905 Y82.834 E.0531
G1 X96.239 Y81.132 E.0678
M204 S1000
; printing object 5_outter_carrier.stl id:0 copy 0
;WIPE_START
G1 F8640
G1 X98.572 Y78.57 E-.8
;WIPE_END
G1 Z.6 F720
G1 X91.109 Y109.629 F10800
G1 Z.2 F720
G1 E.8 F2100
M204 S800
;TYPE:Perimeter
;WIDTH:0.419999
G1 F1200
G1 X90.928 Y108.095 E.04843
G1 X90.822 Y106.55 E.04856
G1 X90.787 Y105 E.04861
G1 X90.822 Y103.45 E.04861
G1 X90.928 Y101.904 E.04859
G1 X91.103 Y100.361 E.04869
G1 X91.258 Y99.342 E.03232
G1 X91.444 Y98.328 E.03232
G1 X91.781 Y96.812 E.04869
G1 X92.187 Y95.314 E.04866
G1 X92.494 Y94.329 E.03235
G1 X92.83 Y93.355 E.03231
G1 X93.392 Y91.907 E.0487
G1 X94.018 Y90.487 E.04866
G1 X94.469 Y89.56 E.03232
G1 X94.949 Y88.647 E.03234
G1 X95.721 Y87.3 E.04868
G1 X96.553 Y85.992 E.04861
G1 X97.445 Y84.722 E.04866
G1 X98.068 Y83.9 E.03234
G1 X98.716 Y83.098 E.03233
G1 X99.737 Y81.929 E.04866
G1 X100.808 Y80.808 E.04861
G1 X101.929 Y79.737 E.04861
G1 X103.098 Y78.716 E.04866
G1 X103.9 Y78.068 E.03233
G1 X104.722 Y77.445 E.03234
G1 X105.992 Y76.553 E.04866
G1 X107.3 Y75.721 E.04861
G1 X108.645 Y74.95 E.04861
G1 X110.025 Y74.239 E.04867
G1 X110.959 Y73.801 E.03235
G1 X111.905 Y73.392 E.03231
G1 X113.355 Y72.83 E.04876
G1 X114.329 Y72.494 E.03231
G1 X115.314 Y72.187 E.03235
G1 X116.812 Y71.781 E.04866
G1 X118.328 Y71.444 E.04869
G1 X119.342 Y71.258 E.03232
G1 X120.361 Y71.103 E.03232
G1 X121.904 Y70.928 E.04869
G1 X123.449 Y70.822 E.04856
G1 X125.256 Y70.789 E.05667
G1 X127.064 Y70.849 E.05672
G1 X128.611 Y70.978 E.04867
G1 X130.148 Y71.177 E.04859
G1 X131.675 Y71.445 E.04861
G1 X133.188 Y71.781 E.04859
G1 X134.686 Y72.187 E.04866
G1 X135.671 Y72.494 E.03235
G1 X136.645 Y72.83 E.03231
G1 X138.093 Y73.392 E.0487
G1 X139.511 Y74.017 E.04859
G1 X140.9 Y74.706 E.04861
G1 X142.257 Y75.458 E.04864
G1 X143.14 Y75.992 E.03235
G1 X144.006 Y76.552 E.03234
G1 X145.278 Y77.445 E.04873
G1 X146.1 Y78.068 E.03234
G1 X146.902 Y78.716 E.03233
G1 X148.071 Y79.737 E.04866
G1 X149.192 Y80.808 E.04861
G1 X150.263 Y81.929 E.04861
G1 X151.282 Y83.097 E.0486
G1 X152.249 Y84.311 E.04866
G1 X152.86 Y85.142 E.03234
G1 X153.446 Y85.991 E.03235
G1 X154.279 Y87.3 E.04865
G1 X155.05 Y88.645 E.04861
G1 X155.761 Y90.025 E.04867
G1 X156.199 Y90.959 E.03235
G1 X156.608 Y91.905 E.03231
G1 X157.17 Y93.355 E.04876
G1 X157.506 Y94.329 E.03231
G1 X157.813 Y95.314 E.03235
G1 X158.219 Y96.812 E.04866
G1 X158.556 Y98.328 E.04869
G1 X158.742 Y99.342 E.03232
G1 X158.897 Y100.361 E.03232
G1 X159.072 Y101.904 E.04869
G1 X159.178 Y103.45 E.04859
G1 X159.211 Y105.085 E.05127
G1 X159.178 Y106.55 E.04595
G1 X159.072 Y108.096 E.04859
G1 X158.897 Y109.639 E.04869
G1 X158.742 Y110.658 E.03232
G1 X158.556 Y111.672 E.03232
G1 X158.219 Y113.188 E.04869
G1 X157.813 Y114.686 E.04866
G1 X157.506 Y115.671 E.03235
G1 X157.174 Y116.634 E.03194
G1 X156.608 Y118.093 E.04907
G1 X155.982 Y119.513 E.04866
G1 X155.531 Y120.44 E.03232
G1 X155.051 Y121.353 E.03234
G1 X154.279 Y122.7 E.04868
G1 X153.447 Y124.008 E.04861
G1 X152.555 Y125.278 E.04866
G1 X151.932 Y126.1 E.03234
G1 X151.284 Y126.902 E.03233
G1 X150.263 Y128.071 E.04866
G1 X149.192 Y129.192 E.04861
G1 X148.071 Y130.263 E.04861
G1 X146.902 Y131.284 E.04866
G1 X146.1 Y131.932 E.03233
G1 X145.278 Y132.555 E.03234
G1 X144.008 Y133.447 E.04866
G1 X142.7 Y134.279 E.04861
G1 X141.355 Y135.05 E.04861
G1 X139.975 Y135.761 E.04867
G1 X139.041 Y136.199 E.03235
G1 X138.095 Y136.608 E.03231
G1 X136.647 Y137.169 E.04869
G1 X135.178 Y137.664 E.0486
G1 X133.686 Y138.092 E.04867
G1 X132.685 Y138.339 E.03233
G1 X131.675 Y138.555 E.03238
G1 X130.658 Y138.742 E.03242
G1 X129.639 Y138.897 E.03232
G1 X128.096 Y139.072 E.04869
G1 X126.55 Y139.178 E.04859
G1 X125 Y139.213 E.04861
G1 X123.45 Y139.178 E.04861
G1 X121.904 Y139.072 E.04859
G1 X120.361 Y138.897 E.04869
G1 X119.342 Y138.742 E.03232
G1 X118.328 Y138.556 E.03232
G1 X116.812 Y138.219 E.04869
G1 X115.314 Y137.813 E.04866
G1 X114.329 Y137.506 E.03235
G1 X113.355 Y137.17 E.03231
G1 X111.907 Y136.608 E.0487
G1 X110.489 Y135.983 E.04859
G1 X109.101 Y135.294 E.04859
G1 X107.743 Y134.542 E.04867
G1 X106.86 Y134.008 E.03235
G1 X105.994 Y133.448 E.03234
G1 X104.722 Y132.555 E.04873
G1 X103.9 Y131.932 E.03234
G1 X103.098 Y131.284 E.03233
G1 X101.929 Y130.263 E.04866
G1 X100.808 Y129.192 E.04861
G1 X99.737 Y128.071 E.04861
G1 X98.716 Y126.902 E.04866
G1 X98.068 Y126.1 E.03233
G1 X97.445 Y125.278 E.03234
G1 X96.553 Y124.008 E.04866
G1 X95.721 Y122.7 E.04861
G1 X94.95 Y121.355 E.04861
G1 X94.239 Y119.975 E.04867
G1 X93.801 Y119.041 E.03235
G1 X93.392 Y118.095 E.03231
G1 X92.83 Y116.645 E.04876
G1 X92.494 Y115.671 E.03231
G1 X92.187 Y114.686 E.03235
G1 X91.781 Y113.188 E.04866
G1 X91.445 Y111.676 E.04856
G1 X91.116 Y109.688 E.06318
M204 S1000
G1 X90.734 Y109.673 F10800
M204 S800
;TYPE:External perimeter
G1 F1200
G1 X90.552 Y108.13 E.04871
G1 X90.446 Y106.567 E.04912
G1 X90.41 Y105 E.04915
G1 X90.446 Y103.433 E.04915
G1 X90.552 Y101.87 E.04912
G1 X90.729 Y100.312 E.04916
G1 X90.886 Y99.28 E.03273
G1 X91.075 Y98.253 E.03274
G1 X91.415 Y96.722 E.04917
G1 X91.825 Y95.209 E.04915
G1 X92.135 Y94.212 E.03274
G1 X92.476 Y93.225 E.03274
G1 X93.043 Y91.763 E.04917
G1 X93.676 Y90.328 E.04918
G1 X94.133 Y89.39 E.03272
G1 X94.618 Y88.465 E.03275
G1 X95.399 Y87.105 E.04917
G1 X96.239 Y85.783 E.04911
G1 X97.14 Y84.499 E.04918
G1 X97.771 Y83.668 E.03272
G1 X98.428 Y82.856 E.03275
G1 X99.458 Y81.674 E.04916
G1 X100.541 Y80.541 E.04914
G1 X101.674 Y79.458 E.04914
G1 X102.856 Y78.428 E.04916
G1 X103.668 Y77.771 E.03275
G1 X104.499 Y77.14 E.03272
G1 X105.783 Y76.239 E.04918
G1 X107.105 Y75.399 E.04911
G1 X108.464 Y74.618 E.04915
G1 X109.858 Y73.9 E.04916
G1 X110.804 Y73.457 E.03275
G1 X111.762 Y73.043 E.03272
G1 X113.225 Y72.476 E.0492
G1 X114.212 Y72.135 E.03274
G1 X115.209 Y71.825 E.03274
G1 X116.722 Y71.415 E.04915
G1 X118.253 Y71.075 E.04917
G1 X119.28 Y70.886 E.03274
G1 X120.312 Y70.729 E.03273
G1 X121.87 Y70.552 E.04916
G1 X123.433 Y70.446 E.04912
G1 X125.256 Y70.412 E.05717
G1 X127.088 Y70.473 E.05747
G1 X128.65 Y70.603 E.04914
G1 X130.205 Y70.804 E.04916
G1 X131.748 Y71.075 E.04912
G1 X133.278 Y71.415 E.04914
G1 X134.791 Y71.825 E.04915
G1 X135.788 Y72.135 E.03274
G1 X136.775 Y72.476 E.03274
G1 X138.237 Y73.043 E.04917
G1 X139.671 Y73.675 E.04914
G1 X141.075 Y74.372 E.04915
G1 X142.446 Y75.132 E.04915
G1 X143.34 Y75.672 E.03275
G1 X144.216 Y76.239 E.03272
G1 X145.501 Y77.14 E.04921
G1 X146.332 Y77.771 E.03272
G1 X147.144 Y78.428 E.03275
G1 X148.326 Y79.458 E.04916
G1 X149.459 Y80.541 E.04914
G1 X150.542 Y81.674 E.04914
G1 X151.572 Y82.855 E.04913
G1 X152.548 Y84.082 E.04916
G1 X153.167 Y84.923 E.03274
G1 X153.76 Y85.782 E.03273
G1 X154.601 Y87.105 E.04915
G1 X155.382 Y88.465 E.04917
G1 X156.1 Y89.858 E.04914
G1 X156.543 Y90.804 E.03275
G1 X156.957 Y91.762 E.03272
G1 X157.524 Y93.225 E.0492
G1 X157.865 Y94.212 E.03274
G1 X158.175 Y95.209 E.03274
G1 X158.585 Y96.722 E.04915
G1 X158.925 Y98.253 E.04917
G1 X159.114 Y99.279 E.03271
G1 X159.271 Y100.312 E.03276
G1 X159.448 Y101.87 E.04916
G1 X159.554 Y103.433 E.04912
G1 X159.588 Y105.094 E.05209
G1 X159.554 Y106.567 E.0462
G1 X159.448 Y108.13 E.04912
G1 X159.271 Y109.688 E.04916
G1 X159.114 Y110.72 E.03273
G1 X158.925 Y111.747 E.03274
G1 X158.585 Y113.278 E.04917
G1 X158.175 Y114.791 E.04915
G1 X157.865 Y115.788 E.03274
G1 X157.528 Y116.764 E.03237
G1 X156.957 Y118.237 E.04953
G1 X156.324 Y119.672 E.04918
G1 X155.867 Y120.61 E.03272
G1 X155.382 Y121.535 E.03275
G1 X154.601 Y122.895 E.04917
G1 X153.761 Y124.217 E.04911
G1 X152.86 Y125.501 E.04918
G1 X152.229 Y126.332 E.03272
G1 X151.572 Y127.144 E.03275
G1 X150.542 Y128.326 E.04916
G1 X149.459 Y129.459 E.04914
G1 X148.326 Y130.542 E.04914
G1 X147.144 Y131.572 E.04916
G1 X146.332 Y132.229 E.03275
G1 X145.501 Y132.86 E.03272
G1 X144.217 Y133.761 E.04918
G1 X142.895 Y134.601 E.04911
G1 X141.535 Y135.382 E.04917
G1 X140.142 Y136.1 E.04914
G1 X139.196 Y136.543 E.03275
G1 X138.238 Y136.957 E.03272
G1 X136.776 Y137.524 E.04917
G1 X135.291 Y138.024 E.04913
G1 X133.783 Y138.456 E.04918
G1 X132.77 Y138.706 E.03271
G1 X131.748 Y138.925 E.03277
G1 X130.721 Y139.114 E.03274
G1 X129.688 Y139.271 E.03276
G1 X128.13 Y139.448 E.04916
G1 X126.567 Y139.554 E.04912
G1 X125 Y139.59 E.04915
G1 X123.433 Y139.554 E.04915
G1 X121.87 Y139.448 E.04912
G1 X120.312 Y139.271 E.04916
G1 X119.28 Y139.114 E.03273
G1 X118.253 Y138.925 E.03274
G1 X116.722 Y138.585 E.04917
G1 X115.209 Y138.175 E.04915
G1 X114.212 Y137.865 E.03274
G1 X113.225 Y137.524 E.03274
G1 X111.763 Y136.957 E.04917
G1 X110.329 Y136.325 E.04914
G1 X108.925 Y135.628 E.04915
G1 X107.554 Y134.868 E.04915
G1 X106.66 Y134.328 E.03275
G1 X105.784 Y133.761 E.03272
G1 X104.499 Y132.86 E.04921
G1 X103.668 Y132.229 E.03272
G1 X102.856 Y131.572 E.03275
G1 X101.674 Y130.542 E.04916
G1 X100.541 Y129.459 E.04914
G1 X99.458 Y128.326 E.04914
G1 X98.428 Y127.144 E.04916
G1 X97.771 Y126.332 E.03275
G1 X97.14 Y125.501 E.03272
G1 X96.24 Y124.217 E.04916
G1 X95.399 Y122.895 E.04913
G1 X94.618 Y121.536 E.04915
G1 X93.9 Y120.142 E.04916
G1 X93.457 Y119.196 E.03275
G1 X93.043 Y118.238 E.03272
G1 X92.476 Y116.775 E.0492
G1 X92.135 Y115.788 E.03274
G1 X91.825 Y114.791 E.03274
G1 X91.415 Y113.278 E.04915
G1 X91.075 Y111.749 E.04911
G1 X90.741 Y109.733 E.06407
M204 S1000
G1 X91.049 Y109.426 F10800
;WIPE_START
G1 F8640
G1 X90.552 Y108.13 E-.3727
G1 X90.446 Y106.567 E-.36173
G1 X90.439 Y106.283 E-.06557
;WIPE_END
G1 Z.6 F720
G1 X147.995 Y107.501 F10800
G1 Z.2 F720
G1 E.8 F2100
M204 S800
;TYPE:Perimeter
G1 F1200
G1 X147.61 Y107.317 E.01338
G1 X147.195 Y107.011 E.01617
G1 X146.847 Y106.632 E.01613
G1 X146.575 Y106.191 E.01625
G1 X146.382 Y105.667 E.01751
G1 X146.298 Y105.106 E.01779
G1 X146.329 Y104.595 E.01605
G1 X146.457 Y104.087 E.01643
G1 X146.697 Y103.586 E.01742
G1 X147.012 Y103.17 E.01636
G1 X147.397 Y102.824 E.01623
G1 X147.842 Y102.558 E.01626
G1 X148.366 Y102.373 E.01742
G1 X148.882 Y102.3 E.01634
G1 X149.398 Y102.327 E.0162
G1 X149.901 Y102.452 E.01625
G1 X150.37 Y102.67 E.01622
G1 X150.818 Y103 E.01745
G1 X151.168 Y103.386 E.01634
G1 X151.437 Y103.831 E.0163
G1 X151.624 Y104.354 E.01741
G1 X151.7 Y104.871 E.01638
G1 X151.674 Y105.389 E.01626
G1 X151.552 Y105.891 E.0162
G1 X151.315 Y106.393 E.01741
G1 X151.004 Y106.813 E.01639
G1 X150.589 Y107.185 E.01747
G1 X150.139 Y107.451 E.01639
G1 X149.651 Y107.623 E.01622
G1 X149.139 Y107.699 E.01623
G1 X148.584 Y107.67 E.01743
G1 X148.049 Y107.526 E.01737
M204 S1000
G1 X148.057 Y107.119 F10800
M204 S800
;TYPE:External perimeter
G1 F1200
G1 X147.748 Y106.961 E.01088
G1 X147.399 Y106.688 E.01389
G1 X147.108 Y106.353 E.01391
G1 X146.884 Y105.966 E.01402
G1 X146.73 Y105.508 E.01515
G1 X146.674 Y105.086 E.01335
G1 X146.71 Y104.587 E.01569
G1 X146.834 Y104.152 E.01418
G1 X147.054 Y103.725 E.01506
G1 X147.335 Y103.375 E.01407
G1 X147.811 Y103.01 E.01881
G1 X148.258 Y102.806 E.01541
G1 X148.521 Y102.723 E.00865
G1 X148.963 Y102.673 E.01395
G1 X149.406 Y102.709 E.01394
G1 X149.836 Y102.829 E.014
G1 X150.236 Y103.029 E.01402
G1 X150.615 Y103.325 E.01508
G1 X150.904 Y103.663 E.01394
G1 X151.125 Y104.053 E.01405
G1 X151.275 Y104.511 E.01511
G1 X151.326 Y104.954 E.01398
G1 X151.292 Y105.398 E.01396
G1 X151.174 Y105.829 E.01401
G1 X150.957 Y106.258 E.01507
G1 X150.68 Y106.609 E.01402
G1 X150.268 Y106.946 E.01669
G1 X149.921 Y107.136 E.0124
G1 X149.498 Y107.272 E.01393
G1 X149.009 Y107.322 E.01541
G1 X148.476 Y107.26 E.01682
G1 X148.111 Y107.146 E.01199
M204 S1000
G1 X147.784 Y107.332 F10800
;WIPE_START
G1 F8640
G1 X147.748 Y106.961 E-.09408
G1 X147.399 Y106.688 E-.10231
G1 X147.108 Y106.353 E-.10246
G1 X146.884 Y105.966 E-.10325
G1 X146.73 Y105.508 E-.11157
G1 X146.674 Y105.086 E-.0983
G1 X146.71 Y104.587 E-.11552
G1 X146.796 Y104.285 E-.07251
;WIPE_END
G1 Z.6 F720
