;FLAVOR:Marlin
;TIME:4310
;Filament used: 1.2487m
;Layer height: 0.12
;MINX:144.2
;MINY:132.987
;MINZ:0.12
;MAXX:201.8
;MAXY:190.587
;MAXZ:15
;Generated with Cura_SteamEngine 4.7.1
M140 S60
M105
M190 S60
M104 S200
M105
M109 S200
M82 ;absolute extrusion mode
M201 X500.00 Y500.00 Z100.00 E5000.00 ;Setup machine max acceleration
M203 X500.00 Y500.00 Z10.00 E50.00 ;Setup machine max feedrate
M204 P500.00 R1000.00 T500.00 ;Setup Print/Retract/Travel acceleration
M205 X8.00 Y8.00 Z0.40 E5.00 ;Setup Jerk
M220 S100 ;Reset Feedrate
M221 S100 ;Reset Flowrate

G28 ;Home

G92 E0 ;Reset Extruder
G1 Z2.0 F3000 ;Move Z Axis up
G1 X10.1 Y20 Z0.28 F5000.0 ;Move to start position
G1 X10.1 Y200.0 Z0.28 F1500.0 E15 ;Draw the first line
G1 X10.4 Y200.0 Z0.28 F5000.0 ;Move to side a little
G1 X10.4 Y20 Z0.28 F1500.0 E30 ;Draw the second line
G92 E0 ;Reset Extruder
G1 Z2.0 F3000 ;Move Z Axis up

G92 E0
G92 E0
G1 F2700 E-5
;LAYER_COUNT:125
;LAYER:0
M107
;MESH:Cage.stl
G0 F6000 X173.129 Y185.787 Z0.12
;TYPE:WALL-INNER
G1 F2700 E0
G1 F1200 X173.547 Y185.78 E0.00834
G1 X173.964 Y185.768 E0.01667
G1 X174.381 Y185.746 E0.025
G1 X174.798 Y185.719 E0.03334
G1 X175.213 Y185.684 E0.04165
G1 X175.631 Y185.643 E0.05003
G1 X176.045 Y185.593 E0.05836
G1 X176.459 Y185.536 E0.06669
G1 X176.87 Y185.473 E0.07499
G1 X177.285 Y185.401 E0.0834
G1 X177.694 Y185.322 E0.09171
G1 X178.101 Y185.238 E0.1
G1 X178.509 Y185.145 E0.10836
G1 X178.915 Y185.047 E0.11669
G1 X179.305 Y184.944 E0.12474
G1 X179.721 Y184.826 E0.13337
G1 X180.122 Y184.706 E0.14172
G1 X180.519 Y184.578 E0.15005
G1 X180.913 Y184.445 E0.15834
G1 X181.286 Y184.311 E0.16625
G1 X181.698 Y184.155 E0.17505
G1 X182.087 Y184 E0.1834
G1 X182.472 Y183.838 E0.19174
G1 X182.853 Y183.671 E0.20004
G1 X183.234 Y183.496 E0.20841
G1 X183.609 Y183.314 E0.21672
G1 X183.983 Y183.127 E0.22507
G1 X184.354 Y182.93 E0.23345
G1 X184.717 Y182.731 E0.24171
G1 X185.081 Y182.525 E0.25006
G1 X185.442 Y182.31 E0.25844
G1 X185.795 Y182.09 E0.26675
G1 X186.146 Y181.866 E0.27505
G1 X186.495 Y181.633 E0.28343
G1 X186.839 Y181.395 E0.29178
G1 X187.176 Y181.152 E0.30007
G1 X187.512 Y180.902 E0.30843
G1 X187.841 Y180.648 E0.31672
G1 X188.162 Y180.392 E0.32491
G1 X188.491 Y180.117 E0.33347
G1 X188.805 Y179.846 E0.34175
G1 X189.118 Y179.569 E0.35009
G1 X189.426 Y179.284 E0.35846
G1 X189.714 Y179.009 E0.36641
G1 X190.024 Y178.703 E0.3751
G1 X190.317 Y178.404 E0.38346
G1 X190.602 Y178.1 E0.39177
G1 X190.884 Y177.792 E0.40011
G1 X191.161 Y177.477 E0.40848
G1 X191.43 Y177.158 E0.4168
G1 X191.694 Y176.837 E0.4251
G1 X191.955 Y176.508 E0.43348
G1 X192.209 Y176.175 E0.44184
G1 X192.455 Y175.839 E0.45015
G1 X192.696 Y175.499 E0.45846
G1 X192.931 Y175.155 E0.46678
G1 X193.162 Y174.806 E0.47513
G1 X193.386 Y174.451 E0.48351
G1 X193.602 Y174.097 E0.49178
G1 X193.815 Y173.734 E0.50018
G1 X194.017 Y173.37 E0.50849
G1 X194.216 Y173.006 E0.51677
G1 X194.41 Y172.63 E0.52521
G1 X194.594 Y172.256 E0.53353
G1 X194.773 Y171.882 E0.5418
G1 X194.947 Y171.5 E0.55018
G1 X195.112 Y171.117 E0.5585
G1 X195.271 Y170.73 E0.56685
G1 X195.423 Y170.34 E0.5752
G1 X195.568 Y169.949 E0.58353
G1 X195.707 Y169.556 E0.59185
G1 X195.839 Y169.159 E0.60019
G1 X195.964 Y168.76 E0.60854
G1 X196.081 Y168.361 E0.61684
G1 X196.188 Y167.971 E0.62491
G1 X196.296 Y167.553 E0.63352
G1 X196.393 Y167.149 E0.64181
G1 X196.485 Y166.737 E0.65024
G1 X196.565 Y166.33 E0.65852
G1 X196.638 Y165.94 E0.66643
G1 X196.71 Y165.506 E0.67521
G1 X196.77 Y165.092 E0.68356
G1 X196.825 Y164.678 E0.6919
G1 X196.871 Y164.261 E0.70027
G1 X196.91 Y163.849 E0.70853
G1 X196.943 Y163.433 E0.71685
G1 X196.967 Y163.015 E0.72521
G1 X196.987 Y162.597 E0.73356
G1 X196.996 Y162.178 E0.74192
G1 X197 Y161.763 E0.75021
G1 X196.995 Y161.345 E0.75855
G1 X196.985 Y160.927 E0.76689
G1 X196.965 Y160.51 E0.77522
G1 X196.94 Y160.091 E0.7836
G1 X196.905 Y159.674 E0.79195
G1 X196.866 Y159.261 E0.80023
G1 X196.819 Y158.846 E0.80856
G1 X196.763 Y158.431 E0.81692
G1 X196.703 Y158.026 E0.82509
G1 X196.637 Y157.629 E0.83312
G1 X196.556 Y157.196 E0.84191
G1 X196.473 Y156.787 E0.85024
G1 X196.382 Y156.377 E0.85862
G1 X196.287 Y155.986 E0.86665
G1 X196.179 Y155.567 E0.87529
G1 X196.067 Y155.166 E0.8836
G1 X195.95 Y154.764 E0.89195
G1 X195.822 Y154.366 E0.9003
G1 X195.69 Y153.971 E0.90861
G1 X195.552 Y153.576 E0.91696
G1 X195.404 Y153.184 E0.92532
G1 X195.252 Y152.797 E0.93362
G1 X195.091 Y152.412 E0.94194
G1 X194.927 Y152.029 E0.95026
G1 X194.751 Y151.646 E0.95867
G1 X194.572 Y151.27 E0.96698
G1 X194.387 Y150.898 E0.97527
G1 X194.194 Y150.526 E0.98363
G1 X193.994 Y150.159 E0.99198
G1 X193.788 Y149.795 E1.00032
G1 X193.576 Y149.435 E1.00866
G1 X193.36 Y149.081 E1.01693
G1 X193.135 Y148.726 E1.02532
G1 X192.902 Y148.377 E1.0337
G1 X192.668 Y148.035 E1.04197
G1 X192.426 Y147.694 E1.05031
G1 X192.178 Y147.359 E1.05863
G1 X191.925 Y147.026 E1.06697
G1 X191.663 Y146.697 E1.07537
G1 X191.397 Y146.376 E1.08369
G1 X191.127 Y146.059 E1.092
G1 X190.851 Y145.746 E1.10032
G1 X190.585 Y145.454 E1.10821
G1 X190.281 Y145.134 E1.11702
G1 X189.994 Y144.842 E1.12519
G1 X189.691 Y144.543 E1.13368
G1 X189.389 Y144.255 E1.14201
G1 X189.081 Y143.972 E1.15036
G1 X188.769 Y143.694 E1.1587
G1 X188.462 Y143.433 E1.16674
G1 X188.13 Y143.158 E1.17534
G1 X187.803 Y142.895 E1.18371
G1 X187.471 Y142.642 E1.19204
G1 X187.137 Y142.393 E1.20036
G1 X186.797 Y142.15 E1.2087
G1 X186.453 Y141.913 E1.21703
G1 X186.105 Y141.682 E1.22537
G1 X185.754 Y141.456 E1.2337
G1 X185.396 Y141.237 E1.24208
G1 X185.038 Y141.025 E1.25038
G1 X184.674 Y140.817 E1.25874
G1 X184.309 Y140.619 E1.26703
G1 X183.939 Y140.425 E1.27537
G1 X183.564 Y140.238 E1.28373
G1 X183.188 Y140.058 E1.29205
G1 X182.809 Y139.882 E1.30039
G1 X182.426 Y139.716 E1.30872
G1 X182.042 Y139.556 E1.31702
G1 X181.653 Y139.401 E1.32538
G1 X181.259 Y139.253 E1.33378
G1 X180.866 Y139.113 E1.3421
G1 X180.471 Y138.981 E1.35041
G1 X180.074 Y138.854 E1.35873
G1 X179.682 Y138.737 E1.36689
G1 X179.272 Y138.621 E1.3754
G1 X178.868 Y138.515 E1.38373
G1 X178.461 Y138.416 E1.39209
G1 X178.052 Y138.325 E1.40045
G1 X177.644 Y138.242 E1.40876
G1 X177.234 Y138.163 E1.4171
G1 X176.82 Y138.093 E1.42547
G1 X176.409 Y138.031 E1.43377
G1 X175.995 Y137.975 E1.44211
G1 X175.58 Y137.926 E1.45045
G1 X175.164 Y137.886 E1.45879
G1 X174.747 Y137.851 E1.46714
G1 X174.331 Y137.825 E1.47545
G1 X173.915 Y137.804 E1.48377
G1 X173.496 Y137.792 E1.49213
G1 X173.079 Y137.787 E1.50045
G1 X172.66 Y137.79 E1.50882
G1 X172.245 Y137.799 E1.5171
G1 X171.827 Y137.814 E1.52545
G1 X171.408 Y137.84 E1.53382
G1 X170.991 Y137.87 E1.54217
G1 X170.577 Y137.91 E1.55047
G1 X170.163 Y137.955 E1.55878
G1 X169.747 Y138.009 E1.56715
G1 X169.334 Y138.069 E1.57548
G1 X168.921 Y138.136 E1.58383
G1 X168.51 Y138.211 E1.59216
G1 X168.102 Y138.291 E1.60046
G1 X167.692 Y138.381 E1.60884
G1 X167.286 Y138.478 E1.61717
G1 X166.885 Y138.579 E1.62542
G1 X166.503 Y138.683 E1.63332
G1 X166.076 Y138.807 E1.6422
G1 X165.678 Y138.932 E1.65052
G1 X165.283 Y139.062 E1.65882
G1 X164.898 Y139.195 E1.66695
G1 X164.519 Y139.336 E1.67502
G1 X164.107 Y139.494 E1.68382
G1 X163.718 Y139.654 E1.69222
G1 X163.338 Y139.819 E1.70048
G1 X162.955 Y139.989 E1.70885
G1 X162.576 Y140.169 E1.71722
G1 X162.203 Y140.353 E1.72552
G1 X161.831 Y140.544 E1.73386
G1 X161.464 Y140.742 E1.74219
G1 X161.099 Y140.944 E1.75051
G1 X160.736 Y141.155 E1.75889
G1 X160.38 Y141.373 E1.76722
G1 X160.028 Y141.594 E1.77552
G1 X159.678 Y141.824 E1.78387
G1 X159.331 Y142.059 E1.79224
G1 X158.99 Y142.3 E1.80057
G1 X158.655 Y142.546 E1.80886
G1 X158.323 Y142.798 E1.81718
G1 X157.993 Y143.057 E1.82555
G1 X157.686 Y143.307 E1.83345
G1 X157.35 Y143.591 E1.84223
G1 X157.036 Y143.866 E1.85056
G1 X156.726 Y144.146 E1.8589
G1 X156.424 Y144.431 E1.86719
G1 X156.124 Y144.723 E1.87554
G1 X155.828 Y145.019 E1.88389
G1 X155.539 Y145.323 E1.89226
G1 X155.256 Y145.626 E1.90054
G1 X154.975 Y145.939 E1.90893
G1 X154.703 Y146.255 E1.91725
G1 X154.436 Y146.577 E1.9256
G1 X154.173 Y146.902 E1.93394
G1 X153.918 Y147.232 E1.94227
G1 X153.668 Y147.565 E1.95058
G1 X153.423 Y147.905 E1.95894
G1 X153.185 Y148.246 E1.96724
G1 X152.952 Y148.593 E1.97558
G1 X152.724 Y148.945 E1.98395
G1 X152.503 Y149.3 E1.99229
G1 X152.29 Y149.659 E2.00062
G1 X152.081 Y150.021 E2.00897
G1 X151.881 Y150.386 E2.01727
G1 X151.685 Y150.755 E2.02561
G1 X151.495 Y151.13 E2.034
G1 X151.314 Y151.505 E2.04231
G1 X151.139 Y151.884 E2.05064
G1 X150.97 Y152.265 E2.05896
G1 X150.807 Y152.648 E2.06726
G1 X150.65 Y153.037 E2.07563
G1 X150.502 Y153.43 E2.08402
G1 X150.361 Y153.822 E2.09233
G1 X150.227 Y154.215 E2.10061
G1 X150.097 Y154.611 E2.10893
G1 X149.974 Y155.013 E2.11732
G1 X149.86 Y155.415 E2.12566
G1 X149.76 Y155.795 E2.1335
G1 X149.653 Y156.224 E2.14233
G1 X149.56 Y156.631 E2.15066
G1 X149.474 Y157.04 E2.159
G1 X149.397 Y157.443 E2.16719
G1 X149.322 Y157.861 E2.17566
G1 X149.258 Y158.276 E2.18404
G1 X149.2 Y158.687 E2.19232
G1 X149.149 Y159.103 E2.20069
G1 X149.108 Y159.519 E2.20903
G1 X149.071 Y159.934 E2.21734
G1 X149.043 Y160.351 E2.22568
G1 X149.02 Y160.768 E2.23402
G1 X149.007 Y161.186 E2.24236
G1 X149 Y161.603 E2.25069
G1 X149 Y162.021 E2.25903
G1 X149.008 Y162.438 E2.26735
G1 X149.022 Y162.856 E2.2757
G1 X149.046 Y163.273 E2.28403
G1 X149.075 Y163.691 E2.29239
G1 X149.113 Y164.107 E2.30073
G1 X149.157 Y164.519 E2.309
G1 X149.206 Y164.935 E2.31736
G1 X149.265 Y165.349 E2.3257
G1 X149.327 Y165.744 E2.33368
G1 X149.4 Y166.15 E2.34192
G1 X149.484 Y166.583 E2.35072
G1 X149.57 Y166.991 E2.35904
G1 X149.665 Y167.398 E2.36738
G1 X149.766 Y167.803 E2.37571
G1 X149.874 Y168.207 E2.38405
G1 X149.988 Y168.608 E2.39237
G1 X150.112 Y169.01 E2.40077
G1 X150.242 Y169.406 E2.40909
G1 X150.377 Y169.802 E2.41744
G1 X150.521 Y170.193 E2.42575
G1 X150.67 Y170.581 E2.43405
G1 X150.826 Y170.971 E2.44243
G1 X150.99 Y171.355 E2.45076
G1 X151.159 Y171.737 E2.4591
G1 X151.337 Y172.117 E2.46747
G1 X151.519 Y172.489 E2.47573
G1 X151.708 Y172.862 E2.48408
G1 X151.904 Y173.232 E2.49244
G1 X152.107 Y173.597 E2.50077
G1 X152.315 Y173.957 E2.50907
G1 X152.53 Y174.318 E2.51745
G1 X152.752 Y174.671 E2.52577
G1 X152.978 Y175.021 E2.53409
G1 X153.212 Y175.368 E2.54244
G1 X153.451 Y175.71 E2.55077
G1 X153.696 Y176.049 E2.55911
G1 X153.948 Y176.382 E2.56745
G1 X154.205 Y176.712 E2.57579
G1 X154.467 Y177.037 E2.58413
G1 X154.737 Y177.357 E2.59248
G1 X155.009 Y177.671 E2.60077
G1 X155.289 Y177.984 E2.60915
G1 X155.574 Y178.289 E2.61748
G1 X155.862 Y178.59 E2.6258
G1 X156.144 Y178.871 E2.63374
G1 X156.44 Y179.159 E2.64198
G1 X156.763 Y179.46 E2.65079
G1 X157.072 Y179.741 E2.65913
G1 X157.386 Y180.014 E2.66743
G1 X157.708 Y180.284 E2.67582
G1 X158.033 Y180.548 E2.68417
G1 X158.361 Y180.805 E2.69249
G1 X158.693 Y181.057 E2.70081
G1 X159.031 Y181.303 E2.70915
G1 X159.373 Y181.544 E2.7175
G1 X159.72 Y181.778 E2.72585
G1 X160.07 Y182.007 E2.7342
G1 X160.425 Y182.228 E2.74254
G1 X160.78 Y182.443 E2.75082
G1 X161.141 Y182.654 E2.75917
G1 X161.508 Y182.857 E2.76754
G1 X161.875 Y183.052 E2.77583
G1 X162.249 Y183.245 E2.78423
G1 X162.622 Y183.427 E2.79251
G1 X163 Y183.606 E2.80086
G1 X163.383 Y183.776 E2.80922
G1 X163.763 Y183.938 E2.81747
G1 X164.151 Y184.098 E2.82584
G1 X164.532 Y184.244 E2.83398
G1 X164.936 Y184.391 E2.84256
G1 X165.329 Y184.528 E2.85087
G1 X165.727 Y184.658 E2.85922
G1 X166.125 Y184.781 E2.86754
G1 X166.506 Y184.892 E2.87546
G1 X166.93 Y185.007 E2.88422
G1 X167.336 Y185.109 E2.89258
G1 X167.741 Y185.203 E2.90087
G1 X168.151 Y185.293 E2.90925
G1 X168.56 Y185.373 E2.91757
G1 X168.972 Y185.446 E2.92592
G1 X169.384 Y185.512 E2.93424
G1 X169.796 Y185.571 E2.94255
G1 X170.212 Y185.624 E2.95092
G1 X170.627 Y185.669 E2.95925
G1 X171.042 Y185.707 E2.96757
G1 X171.458 Y185.737 E2.97589
G1 X171.876 Y185.762 E2.98425
G1 X172.295 Y185.777 E2.99261
G1 X172.711 Y185.785 E3.00092
G1 X173.129 Y185.787 E3.00926
G0 F6000 X173.127 Y185.387
G1 F1200 X173.538 Y185.38 E3.01746
G1 X173.948 Y185.368 E3.02565
G1 X174.358 Y185.347 E3.03384
G1 X174.768 Y185.32 E3.04204
G1 X175.177 Y185.286 E3.05023
G1 X175.587 Y185.245 E3.05845
G1 X175.994 Y185.196 E3.06663
G1 X176.401 Y185.14 E3.07483
G1 X176.806 Y185.078 E3.08301
G1 X177.213 Y185.008 E3.09125
G1 X177.615 Y184.93 E3.09942
G1 X178.016 Y184.847 E3.10759
G1 X178.418 Y184.756 E3.11582
G1 X178.817 Y184.659 E3.12401
G1 X179.199 Y184.558 E3.1319
G1 X179.609 Y184.442 E3.1404
G1 X180.003 Y184.324 E3.14861
G1 X180.394 Y184.198 E3.15681
G1 X180.782 Y184.067 E3.16498
G1 X181.148 Y183.936 E3.17274
G1 X181.553 Y183.782 E3.18138
G1 X181.935 Y183.63 E3.18959
G1 X182.314 Y183.47 E3.1978
G1 X182.689 Y183.306 E3.20597
G1 X183.063 Y183.134 E3.21418
G1 X183.432 Y182.955 E3.22236
G1 X183.8 Y182.771 E3.23058
G1 X184.164 Y182.578 E3.2388
G1 X184.522 Y182.382 E3.24694
G1 X184.88 Y182.179 E3.25516
G1 X185.234 Y181.968 E3.26338
G1 X185.582 Y181.752 E3.27155
G1 X185.927 Y181.531 E3.27973
G1 X186.27 Y181.302 E3.28796
G1 X186.608 Y181.068 E3.29616
G1 X186.94 Y180.829 E3.30433
G1 X187.27 Y180.583 E3.31254
G1 X187.594 Y180.333 E3.32071
G1 X187.909 Y180.082 E3.32875
G1 X188.232 Y179.812 E3.33715
G1 X188.542 Y179.545 E3.34531
G1 X188.85 Y179.272 E3.35353
G1 X189.152 Y178.993 E3.36173
G1 X189.435 Y178.722 E3.36955
G1 X189.741 Y178.421 E3.37812
G1 X190.028 Y178.127 E3.38631
G1 X190.309 Y177.828 E3.3945
G1 X190.586 Y177.525 E3.4027
G1 X190.858 Y177.216 E3.41091
G1 X191.123 Y176.902 E3.41911
G1 X191.383 Y176.586 E3.42728
G1 X191.639 Y176.263 E3.4355
G1 X191.888 Y175.936 E3.4437
G1 X192.13 Y175.605 E3.45189
G1 X192.368 Y175.27 E3.46009
G1 X192.599 Y174.932 E3.46826
G1 X192.826 Y174.589 E3.47646
G1 X193.046 Y174.24 E3.4847
G1 X193.259 Y173.891 E3.49286
G1 X193.468 Y173.536 E3.50108
G1 X193.667 Y173.177 E3.50927
G1 X193.863 Y172.818 E3.51743
G1 X194.053 Y172.45 E3.5257
G1 X194.234 Y172.082 E3.53388
G1 X194.41 Y171.713 E3.54204
G1 X194.581 Y171.338 E3.55026
G1 X194.743 Y170.962 E3.55843
G1 X194.9 Y170.581 E3.56666
G1 X195.049 Y170.198 E3.57486
G1 X195.192 Y169.813 E3.58306
G1 X195.329 Y169.426 E3.59125
G1 X195.458 Y169.036 E3.59945
G1 X195.581 Y168.644 E3.60764
G1 X195.696 Y168.251 E3.61582
G1 X195.802 Y167.868 E3.62375
G1 X195.908 Y167.457 E3.63222
G1 X196.003 Y167.059 E3.64038
G1 X196.093 Y166.655 E3.64864
G1 X196.172 Y166.254 E3.6568
G1 X196.244 Y165.87 E3.66459
G1 X196.315 Y165.444 E3.67321
G1 X196.374 Y165.037 E3.68142
G1 X196.428 Y164.63 E3.68961
G1 X196.473 Y164.221 E3.69783
G1 X196.511 Y163.814 E3.70598
G1 X196.544 Y163.405 E3.71417
G1 X196.568 Y162.994 E3.72239
G1 X196.587 Y162.583 E3.7306
G1 X196.596 Y162.172 E3.7388
G1 X196.6 Y161.763 E3.74696
G1 X196.595 Y161.352 E3.75517
G1 X196.585 Y160.941 E3.76337
G1 X196.566 Y160.531 E3.77156
G1 X196.541 Y160.12 E3.77978
G1 X196.507 Y159.71 E3.78799
G1 X196.468 Y159.302 E3.79617
G1 X196.422 Y158.895 E3.80434
G1 X196.367 Y158.487 E3.81256
G1 X196.308 Y158.088 E3.82061
G1 X196.243 Y157.699 E3.82848
G1 X196.163 Y157.272 E3.83715
G1 X196.082 Y156.87 E3.84533
G1 X195.992 Y156.468 E3.85355
G1 X195.899 Y156.083 E3.86146
G1 X195.793 Y155.671 E3.86995
G1 X195.682 Y155.276 E3.87813
G1 X195.567 Y154.881 E3.88634
G1 X195.442 Y154.49 E3.89453
G1 X195.312 Y154.101 E3.90272
G1 X195.176 Y153.713 E3.91092
G1 X195.031 Y153.328 E3.91913
G1 X194.881 Y152.947 E3.92731
G1 X194.723 Y152.568 E3.9355
G1 X194.561 Y152.191 E3.94369
G1 X194.389 Y151.816 E3.95192
G1 X194.212 Y151.445 E3.96013
G1 X194.03 Y151.079 E3.96828
G1 X193.841 Y150.714 E3.97648
G1 X193.644 Y150.353 E3.98469
G1 X193.442 Y149.995 E3.99289
G1 X193.233 Y149.641 E4.0011
G1 X193.02 Y149.292 E4.00926
G1 X192.8 Y148.944 E4.01747
G1 X192.571 Y148.601 E4.0257
G1 X192.34 Y148.264 E4.03386
G1 X192.102 Y147.929 E4.04206
G1 X191.858 Y147.599 E4.05025
G1 X191.609 Y147.272 E4.05845
G1 X191.352 Y146.949 E4.06669
G1 X191.091 Y146.633 E4.07487
G1 X190.825 Y146.321 E4.08305
G1 X190.553 Y146.013 E4.09125
G1 X190.292 Y145.727 E4.09898
G1 X189.993 Y145.412 E4.10764
G1 X189.711 Y145.124 E4.11569
G1 X189.413 Y144.83 E4.12404
G1 X189.116 Y144.547 E4.13223
G1 X188.813 Y144.269 E4.14043
G1 X188.506 Y143.996 E4.14863
G1 X188.205 Y143.739 E4.15653
G1 X187.877 Y143.468 E4.16502
G1 X187.556 Y143.21 E4.17324
G1 X187.23 Y142.961 E4.18143
